;FLAVOR:Marlin
;TIME:1682
;Filament used: 1.26155m
;Layer height: 0.28
;MINX:60.873
;MINY:94.194
;MINZ:0.28
;MAXX:154.234
;MAXY:132.186
;MAXZ:8.12
;TARGET_MACHINE.NAME:Creality Ender-3
;Generated with Cura_SteamEngine 5.6.0
M140 S50
M105
M190 S50
M104 S200
M105
M109 S200
M82 ;absolute extrusion mode
; Ender 3 Custom Start G-code
G92 E0 ; Reset Extruder
G28 ; Home all axes
G1 Z2.0 F3000 ; Move Z Axis up little to prevent scratching of Heat Bed
G1 X0.1 Y20 Z0.3 F5000.0 ; Move to start position
G1 X0.1 Y200.0 Z0.3 F1500.0 E15 ; Draw the first line
G1 X0.4 Y200.0 Z0.3 F5000.0 ; Move to side a little
G1 X0.4 Y20 Z0.3 F1500.0 E30 ; Draw the second line
G92 E0 ; Reset Extruder
G1 Z2.0 F3000 ; Move Z Axis up little to prevent scratching of Heat Bed
G1 X5 Y20 Z0.3 F5000.0 ; Move over to prevent blob squish
G92 E0
G92 E0
G1 F2700 E-5
;LAYER_COUNT:29
;LAYER:0
M107
G0 F6000 X68.921 Y97.571 Z0.28
;TYPE:SKIRT
G1 F2700 E0
G1 F1200 X69.305 Y97.31 E0.02162
G1 X69.795 Y96.999 E0.04864
G1 X70.196 Y96.761 E0.07036
G1 X70.743 Y96.455 E0.09954
G1 X71.173 Y96.232 E0.1221
G1 X71.754 Y95.952 E0.15213
G1 X72.22 Y95.745 E0.17587
G1 X72.855 Y95.486 E0.20781
G1 X73.322 Y95.314 E0.23098
G1 X73.932 Y95.109 E0.26094
G1 X74.454 Y94.952 E0.28633
G1 X75.09 Y94.781 E0.31699
G1 X75.523 Y94.679 E0.33771
G1 X76.171 Y94.549 E0.36848
G1 X76.668 Y94.464 E0.39196
G1 X77.314 Y94.373 E0.42234
G1 X77.88 Y94.313 E0.44884
G1 X78.657 Y94.258 E0.48511
G1 X79.174 Y94.241 E0.5092
G1 X79.72 Y94.237 E0.53462
G1 X80.202 Y94.245 E0.55707
G1 X80.801 Y94.273 E0.58499
G1 X83.89 Y94.501 E0.72922
G1 X86.447 Y94.623 E0.84842
G1 X89.45 Y94.674 E0.98827
G1 X91.919 Y94.638 E1.10325
G1 X94.485 Y94.529 E1.22284
G1 X97.022 Y94.349 E1.34127
G1 X98.48 Y94.233 E1.40938
G1 X99.146 Y94.202 E1.44042
G1 X99.654 Y94.194 E1.46408
G1 X100.286 Y94.202 E1.49351
G1 X100.775 Y94.224 E1.51631
G1 X101.447 Y94.275 E1.54769
G1 X102.827 Y94.425 E1.61232
G1 X105.429 Y94.664 E1.73399
G1 X107.942 Y94.825 E1.85125
G1 X110.439 Y94.914 E1.96759
G1 X112.943 Y94.933 E2.08419
G1 X117.187 Y94.817 E2.28189
G1 X117.68 Y94.815 E2.30484
G1 X118.394 Y94.831 E2.3381
G1 X120.166 Y94.911 E2.42069
G1 X122.706 Y94.982 E2.53901
G1 X125.194 Y94.98 E2.65487
G1 X127.763 Y94.906 E2.77454
G1 X130.219 Y94.765 E2.88909
G1 X134.225 Y94.409 E3.07636
G1 X134.99 Y94.368 E3.11203
G1 X135.499 Y94.36 E3.13574
G1 X136.139 Y94.369 E3.16554
G1 X136.642 Y94.392 E3.18899
G1 X137.319 Y94.443 E3.2206
G1 X137.803 Y94.497 E3.24328
G1 X138.414 Y94.581 E3.272
G1 X138.888 Y94.661 E3.29438
G1 X139.596 Y94.805 E3.32802
G1 X140.136 Y94.934 E3.35387
G1 X140.764 Y95.104 E3.38417
G1 X141.245 Y95.252 E3.4076
G1 X141.835 Y95.45 E3.43658
G1 X142.271 Y95.611 E3.45822
G1 X142.859 Y95.85 E3.48778
G1 X143.27 Y96.03 E3.50867
G1 X143.871 Y96.319 E3.53972
G1 X144.373 Y96.579 E3.56605
G1 X144.897 Y96.868 E3.59391
G1 X145.253 Y97.078 E3.61316
G1 X145.834 Y97.448 E3.64523
G1 X146.34 Y97.795 E3.6738
G1 X146.866 Y98.178 E3.7041
G1 X147.536 Y98.714 E3.74405
G1 X147.943 Y99.065 E3.76908
G1 X148.584 Y99.663 E3.8099
G1 X149.172 Y100.261 E3.84895
G1 X149.884 Y101.062 E3.89885
G1 X150.304 Y101.585 E3.93009
G1 X150.766 Y102.207 E3.96616
G1 X151.095 Y102.683 E3.99311
G1 X151.466 Y103.262 E4.02513
G1 X151.697 Y103.648 E4.04607
G1 X151.999 Y104.187 E4.07484
G1 X152.237 Y104.646 E4.09892
G1 X152.528 Y105.247 E4.13001
G1 X152.733 Y105.711 E4.15363
G1 X152.994 Y106.36 E4.1862
G1 X153.179 Y106.864 E4.2112
G1 X153.384 Y107.478 E4.24135
G1 X153.503 Y107.876 E4.26069
G1 X153.664 Y108.473 E4.28948
G1 X153.793 Y109.017 E4.31551
G1 X153.929 Y109.691 E4.34753
G1 X154.005 Y110.136 E4.36855
G1 X154.095 Y110.774 E4.39855
G1 X154.152 Y111.307 E4.42351
G1 X154.204 Y112.01 E4.45634
G1 X154.227 Y112.587 E4.48323
G1 X154.234 Y113.237 E4.5135
G1 X154.199 Y114.172 E4.55706
G1 X154.156 Y114.742 E4.58368
G1 X154.086 Y115.386 E4.61385
G1 X154.026 Y115.833 E4.63485
G1 X153.929 Y116.415 E4.66232
G1 X153.838 Y116.875 E4.68415
G1 X153.679 Y117.561 E4.71694
G1 X153.515 Y118.173 E4.74645
G1 X153.331 Y118.785 E4.7762
G1 X153.209 Y119.154 E4.7943
G1 X152.981 Y119.775 E4.82511
G1 X152.784 Y120.261 E4.84952
G1 X152.52 Y120.861 E4.88005
G1 X152.28 Y121.364 E4.906
G1 X151.931 Y122.031 E4.94105
G1 X151.581 Y122.646 E4.974
G1 X150.975 Y123.59 E5.02624
G1 X150.531 Y124.208 E5.06167
G1 X150.051 Y124.826 E5.09811
G1 X149.586 Y125.383 E5.13189
G1 X148.812 Y126.212 E5.1847
G1 X148.303 Y126.702 E5.2176
G1 X147.74 Y127.207 E5.25282
G1 X147.319 Y127.559 E5.27837
G1 X146.79 Y127.974 E5.30968
G1 X146.379 Y128.275 E5.3334
G1 X145.91 Y128.599 E5.35994
G1 X145.546 Y128.836 E5.38017
G1 X144.919 Y129.215 E5.41428
G1 X144.442 Y129.481 E5.43972
G1 X143.826 Y129.799 E5.472
G1 X143.403 Y130.001 E5.49382
G1 X142.854 Y130.243 E5.52176
G1 X142.353 Y130.448 E5.54697
G1 X141.7 Y130.689 E5.57938
G1 X141.177 Y130.864 E5.60506
G1 X140.581 Y131.043 E5.63404
G1 X140.168 Y131.154 E5.65395
G1 X139.509 Y131.309 E5.68547
G1 X139.016 Y131.408 E5.70889
G1 X138.357 Y131.52 E5.74001
G1 X137.795 Y131.598 E5.76643
G1 X137.204 Y131.662 E5.79411
G1 X136.819 Y131.693 E5.8121
G1 X136.153 Y131.724 E5.84314
G1 X135.614 Y131.733 E5.86824
G1 X134.937 Y131.724 E5.89977
G1 X133.345 Y131.65 E5.97398
G1 X130.723 Y131.566 E6.09614
G1 X128.229 Y131.558 E6.21227
G1 X125.703 Y131.619 E6.32992
G1 X123.243 Y131.749 E6.44463
G1 X119.014 Y132.127 E6.64234
G1 X118.433 Y132.163 E6.66944
G1 X117.888 Y132.181 E6.69483
G1 X117.344 Y132.186 E6.72016
G1 X116.908 Y132.179 E6.74047
G1 X116.271 Y132.148 E6.77017
G1 X115.652 Y132.095 E6.79909
G1 X114.487 Y131.967 E6.85367
G1 X111.951 Y131.73 E6.97227
G1 X109.434 Y131.566 E7.08972
G1 X106.901 Y131.472 E7.20775
G1 X104.424 Y131.45 E7.32309
G1 X99.85 Y131.567 E7.53615
G1 X99.119 Y131.56 E7.57019
G1 X98.295 Y131.519 E7.6086
G1 X96.841 Y131.409 E7.6765
G1 X94.236 Y131.25 E7.79803
G1 X91.741 Y131.167 E7.91427
G1 X89.213 Y131.157 E8.03198
G1 X86.682 Y131.217 E8.14987
G1 X84.233 Y131.344 E8.26406
G1 X82.406 Y131.503 E8.34945
G1 X81.024 Y131.604 E8.41398
G1 X80.057 Y131.649 E8.45905
G1 X79.418 Y131.655 E8.48881
G1 X78.897 Y131.643 E8.51307
G1 X78.099 Y131.596 E8.5503
G1 X77.547 Y131.543 E8.57612
G1 X76.985 Y131.475 E8.60248
G1 X76.406 Y131.387 E8.62975
G1 X75.583 Y131.228 E8.66878
G1 X74.848 Y131.048 E8.70402
G1 X74.338 Y130.907 E8.72866
G1 X73.405 Y130.604 E8.77433
G1 X72.608 Y130.305 E8.81397
G1 X71.643 Y129.887 E8.86294
G1 X71.091 Y129.617 E8.89155
G1 X70.329 Y129.209 E8.9318
G1 X69.82 Y128.906 E8.95938
G1 X69.293 Y128.57 E8.98849
G1 X68.701 Y128.164 E9.02191
G1 X68.299 Y127.868 E9.04516
G1 X67.813 Y127.489 E9.07386
G1 X67.446 Y127.184 E9.09608
G1 X66.869 Y126.675 E9.1319
G1 X66.33 Y126.152 E9.16687
G1 X65.872 Y125.676 E9.19763
G1 X65.374 Y125.118 E9.23246
G1 X65.026 Y124.702 E9.25771
G1 X64.605 Y124.16 E9.28967
G1 X64.321 Y123.768 E9.31221
G1 X63.97 Y123.255 E9.34115
G1 X63.695 Y122.826 E9.36488
G1 X63.343 Y122.234 E9.39695
G1 X63.07 Y121.74 E9.42323
G1 X62.782 Y121.18 E9.45256
G1 X62.622 Y120.844 E9.46989
G1 X62.371 Y120.273 E9.49893
G1 X62.17 Y119.781 E9.52368
G1 X61.948 Y119.184 E9.55334
G1 X61.753 Y118.608 E9.58165
G1 X61.548 Y117.929 E9.61468
G1 X61.437 Y117.51 E9.63486
G1 X61.296 Y116.9 E9.66401
G1 X61.208 Y116.464 E9.68473
G1 X61.101 Y115.845 E9.71398
G1 X61.018 Y115.264 E9.74131
G1 X60.944 Y114.581 E9.77329
G1 X60.91 Y114.139 E9.79394
G1 X60.881 Y113.51 E9.82326
G1 X60.873 Y113.016 E9.84626
G1 X60.881 Y112.395 E9.87518
G1 X60.902 Y111.913 E9.89765
G1 X60.949 Y111.267 E9.92781
G1 X61.002 Y110.768 E9.95117
G1 X61.091 Y110.102 E9.98246
G1 X61.184 Y109.551 E10.00848
G1 X61.328 Y108.841 E10.04221
G1 X61.436 Y108.393 E10.06367
G1 X61.587 Y107.825 E10.09104
G1 X61.721 Y107.373 E10.11299
G1 X61.936 Y106.729 E10.14461
G1 X62.113 Y106.248 E10.16847
G1 X62.356 Y105.648 E10.19861
G1 X62.558 Y105.188 E10.22201
G1 X62.832 Y104.611 E10.25175
G1 X63.049 Y104.187 E10.27393
G1 X63.339 Y103.661 E10.3019
G1 X63.577 Y103.255 E10.32381
G1 X63.969 Y102.638 E10.35785
G1 X64.304 Y102.148 E10.38549
G1 X64.707 Y101.599 E10.4172
G1 X64.979 Y101.25 E10.43781
G1 X65.368 Y100.782 E10.46614
G1 X65.77 Y100.327 E10.49441
G1 X66.258 Y99.808 E10.52759
G1 X66.653 Y99.416 E10.5535
G1 X67.569 Y98.605 E10.61047
G1 X68.277 Y98.044 E10.65253
G1 X68.921 Y97.571 E10.68974
G0 F6000 X69.146 Y97.902
G1 F1200 X69.52 Y97.648 E10.71079
G1 X70 Y97.343 E10.73727
G1 X70.391 Y97.11 E10.75846
G1 X70.927 Y96.81 E10.78706
G1 X71.347 Y96.592 E10.8091
G1 X71.917 Y96.317 E10.83857
G1 X72.371 Y96.115 E10.86171
G1 X72.994 Y95.861 E10.89303
G1 X73.449 Y95.693 E10.91562
G1 X74.047 Y95.492 E10.94499
G1 X74.558 Y95.338 E10.96985
G1 X75.182 Y95.17 E10.99994
G1 X75.602 Y95.071 E11.02003
G1 X76.238 Y94.943 E11.05024
G1 X76.724 Y94.86 E11.0732
G1 X77.357 Y94.771 E11.10296
G1 X77.908 Y94.712 E11.12876
G1 X78.67 Y94.658 E11.16434
G1 X79.177 Y94.641 E11.18796
G1 X79.713 Y94.637 E11.21292
G1 X80.184 Y94.645 E11.23485
G1 X80.772 Y94.672 E11.26226
G1 X83.871 Y94.901 E11.40696
G1 X86.428 Y95.023 E11.52616
G1 X89.449 Y95.074 E11.66685
G1 X91.936 Y95.038 E11.78266
G1 X94.502 Y94.929 E11.90225
G1 X97.054 Y94.748 E12.02139
G1 X98.499 Y94.633 E12.08888
G1 X99.152 Y94.602 E12.11932
G1 X99.649 Y94.594 E12.14247
G1 X100.268 Y94.602 E12.17129
G1 X100.745 Y94.623 E12.19353
G1 X101.404 Y94.673 E12.2243
G1 X102.784 Y94.822 E12.28893
G1 X105.403 Y95.063 E12.4114
G1 X107.928 Y95.225 E12.52922
G1 X110.425 Y95.314 E12.64556
G1 X112.951 Y95.333 E12.76319
G1 X117.189 Y95.217 E12.9606
G1 X117.671 Y95.215 E12.98304
G1 X118.376 Y95.231 E13.01588
G1 X120.148 Y95.311 E13.09847
G1 X122.695 Y95.382 E13.21712
G1 X125.206 Y95.38 E13.33404
G1 X127.775 Y95.306 E13.45372
G1 X130.244 Y95.164 E13.56887
G1 X134.246 Y94.808 E13.75596
G1 X134.996 Y94.768 E13.79093
G1 X135.493 Y94.76 E13.81408
G1 X136.121 Y94.769 E13.84332
G1 X136.612 Y94.791 E13.86621
G1 X137.275 Y94.841 E13.89717
G1 X137.749 Y94.893 E13.91937
G1 X138.347 Y94.975 E13.94748
G1 X138.808 Y95.053 E13.96925
G1 X139.503 Y95.194 E14.00227
G1 X140.031 Y95.32 E14.02755
G1 X140.647 Y95.487 E14.05727
G1 X141.118 Y95.631 E14.0802
G1 X141.696 Y95.825 E14.10859
G1 X142.121 Y95.982 E14.12969
G1 X142.698 Y96.216 E14.15868
G1 X143.097 Y96.391 E14.17897
G1 X143.687 Y96.674 E14.20944
G1 X144.18 Y96.929 E14.23528
G1 X144.694 Y97.213 E14.26263
G1 X145.038 Y97.415 E14.2812
G1 X145.608 Y97.778 E14.31267
G1 X146.105 Y98.118 E14.34071
G1 X146.616 Y98.49 E14.37014
G1 X147.275 Y99.017 E14.40943
G1 X147.67 Y99.357 E14.4337
G1 X148.299 Y99.944 E14.47376
G1 X148.873 Y100.527 E14.51186
G1 X149.572 Y101.312 E14.5608
G1 X149.983 Y101.824 E14.59137
G1 X150.437 Y102.434 E14.62678
G1 X150.758 Y102.899 E14.65309
G1 X151.123 Y103.467 E14.68453
G1 X151.348 Y103.843 E14.70493
G1 X151.644 Y104.372 E14.73316
G1 X151.877 Y104.82 E14.75667
G1 X152.162 Y105.409 E14.78714
G1 X152.362 Y105.86 E14.81011
G1 X152.619 Y106.498 E14.84214
G1 X152.8 Y106.991 E14.8666
G1 X153.001 Y107.593 E14.89615
G1 X153.117 Y107.98 E14.91496
G1 X153.275 Y108.566 E14.94322
G1 X153.401 Y109.096 E14.96859
G1 X153.535 Y109.758 E15.00004
G1 X153.609 Y110.192 E15.02054
G1 X153.697 Y110.817 E15.04993
G1 X153.753 Y111.337 E15.07428
G1 X153.804 Y112.026 E15.10645
G1 X153.827 Y112.591 E15.13278
G1 X153.834 Y113.222 E15.16217
G1 X153.8 Y114.142 E15.20504
G1 X153.758 Y114.699 E15.23105
G1 X153.69 Y115.332 E15.26069
G1 X153.631 Y115.767 E15.28113
G1 X153.534 Y116.349 E15.30861
G1 X153.448 Y116.785 E15.3293
G1 X153.293 Y117.457 E15.36141
G1 X153.132 Y118.058 E15.39038
G1 X152.952 Y118.659 E15.4196
G1 X152.833 Y119.016 E15.43712
G1 X152.61 Y119.625 E15.46732
G1 X152.418 Y120.1 E15.49117
G1 X152.159 Y120.689 E15.52114
G1 X151.926 Y121.178 E15.54636
G1 X151.583 Y121.833 E15.58079
G1 X151.244 Y122.43 E15.61275
G1 X150.65 Y123.357 E15.66402
G1 X150.215 Y123.963 E15.69876
G1 X149.744 Y124.57 E15.73453
G1 X149.293 Y125.11 E15.76729
G1 X148.534 Y125.924 E15.81912
G1 X148.036 Y126.404 E15.85132
G1 X147.484 Y126.9 E15.88588
G1 X147.072 Y127.244 E15.91087
G1 X146.554 Y127.651 E15.94155
G1 X146.151 Y127.946 E15.9648
G1 X145.692 Y128.264 E15.9908
G1 X145.339 Y128.494 E16.01042
G1 X144.724 Y128.866 E16.04389
G1 X144.258 Y129.126 E16.06874
G1 X143.654 Y129.438 E16.10039
G1 X143.241 Y129.635 E16.1217
G1 X142.703 Y129.873 E16.14909
G1 X142.214 Y130.073 E16.17369
G1 X141.573 Y130.31 E16.20552
G1 X141.062 Y130.481 E16.23061
G1 X140.477 Y130.657 E16.25905
G1 X140.076 Y130.765 E16.27839
G1 X139.43 Y130.917 E16.30929
G1 X138.949 Y131.014 E16.33214
G1 X138.302 Y131.124 E16.3627
G1 X137.752 Y131.2 E16.38855
G1 X137.172 Y131.263 E16.41572
G1 X136.8 Y131.293 E16.4331
G1 X136.146 Y131.324 E16.46359
G1 X135.619 Y131.333 E16.48813
G1 X134.956 Y131.324 E16.519
G1 X133.364 Y131.25 E16.59321
G1 X130.736 Y131.166 E16.71565
G1 X128.22 Y131.158 E16.8328
G1 X125.693 Y131.219 E16.9505
G1 X123.213 Y131.35 E17.06615
G1 X118.989 Y131.728 E17.26362
G1 X118.42 Y131.763 E17.29016
G1 X117.884 Y131.781 E17.31514
G1 X117.351 Y131.786 E17.33996
G1 X116.927 Y131.779 E17.3597
G1 X116.305 Y131.749 E17.3887
G1 X115.695 Y131.697 E17.41721
G1 X114.53 Y131.57 E17.47177
G1 X111.977 Y131.331 E17.59117
G1 X109.449 Y131.166 E17.70914
G1 X106.916 Y131.072 E17.82717
G1 X104.418 Y131.05 E17.94349
G1 X99.853 Y131.167 E18.15612
G1 X99.139 Y131.161 E18.18937
G1 X98.325 Y131.12 E18.22732
G1 X96.871 Y131.01 E18.29522
G1 X94.249 Y130.85 E18.41754
G1 X91.754 Y130.767 E18.53378
G1 X89.206 Y130.757 E18.65243
G1 X86.673 Y130.817 E18.77041
G1 X84.206 Y130.945 E18.88543
G1 X82.389 Y131.103 E18.97036
G1 X82.196 Y131.111 E18.97936
G1 X81.005 Y131.204 E19.03498
G1 X80.053 Y131.249 E19.07936
G1 X79.427 Y131.255 E19.10851
G1 X78.92 Y131.244 E19.13213
G1 X78.137 Y131.198 E19.16865
G1 X77.595 Y131.146 E19.194
G1 X77.045 Y131.079 E19.2198
G1 X76.482 Y130.994 E19.24631
G1 X75.659 Y130.835 E19.28534
G1 X74.955 Y130.662 E19.3191
G1 X74.445 Y130.521 E19.34374
G1 X73.546 Y130.229 E19.38775
G1 X72.749 Y129.93 E19.42739
G1 X71.819 Y129.528 E19.47457
G1 X71.279 Y129.264 E19.50256
G1 X70.534 Y128.866 E19.54189
G1 X70.035 Y128.568 E19.56895
G1 X69.519 Y128.24 E19.59742
G1 X68.938 Y127.842 E19.63021
G1 X68.545 Y127.553 E19.65293
G1 X68.068 Y127.181 E19.6811
G1 X67.71 Y126.884 E19.70276
G1 X67.147 Y126.388 E19.73769
G1 X66.618 Y125.875 E19.77201
G1 X66.17 Y125.409 E19.80211
G1 X65.681 Y124.862 E19.83627
G1 X65.342 Y124.456 E19.8609
G1 X64.929 Y123.925 E19.89222
G1 X64.651 Y123.542 E19.91426
G1 X64.307 Y123.039 E19.94264
G1 X64.039 Y122.621 E19.96576
G1 X63.693 Y122.04 E19.99725
G1 X63.426 Y121.557 E20.02294
G1 X63.143 Y121.007 E20.05174
G1 X62.988 Y120.683 E20.06847
G1 X62.741 Y120.122 E20.09701
G1 X62.545 Y119.642 E20.12115
G1 X62.327 Y119.056 E20.15027
G1 X62.136 Y118.492 E20.17799
G1 X61.935 Y117.826 E20.21039
G1 X61.827 Y117.419 E20.23
G1 X61.688 Y116.821 E20.25858
G1 X61.602 Y116.396 E20.27877
G1 X61.497 Y115.788 E20.3075
G1 X61.416 Y115.221 E20.33417
G1 X61.343 Y114.55 E20.3656
G1 X61.31 Y114.12 E20.38568
G1 X61.281 Y113.503 E20.41445
G1 X61.273 Y113.021 E20.43689
G1 X61.281 Y112.412 E20.46525
G1 X61.301 Y111.942 E20.48716
G1 X61.347 Y111.309 E20.51671
G1 X61.398 Y110.821 E20.53956
G1 X61.485 Y110.169 E20.57019
G1 X61.576 Y109.63 E20.59564
G1 X61.717 Y108.934 E20.62871
G1 X61.822 Y108.496 E20.64968
G1 X61.971 Y107.939 E20.67653
G1 X62.105 Y107.487 E20.69848
G1 X62.312 Y106.867 E20.72892
G1 X62.484 Y106.398 E20.75218
G1 X62.722 Y105.809 E20.78176
G1 X62.92 Y105.359 E20.80465
G1 X63.188 Y104.793 E20.83381
G1 X63.399 Y104.38 E20.85541
G1 X63.684 Y103.863 E20.8829
G1 X63.915 Y103.469 E20.90416
G1 X64.299 Y102.864 E20.93753
G1 X64.627 Y102.384 E20.9646
G1 X65.022 Y101.845 E20.99572
G1 X65.287 Y101.506 E21.01575
G1 X65.676 Y101.038 E21.04409
G1 X66.061 Y100.601 E21.07121
G1 X66.54 Y100.092 E21.10376
G1 X66.935 Y99.7 E21.12967
G1 X67.818 Y98.918 E21.18459
G1 X68.514 Y98.366 E21.22595
G1 X69.146 Y97.902 E21.26246
G0 F6000 X69.37 Y98.233
G1 F1200 X69.735 Y97.986 E21.28298
G1 X70.215 Y97.681 E21.30947
G1 X70.586 Y97.459 E21.3296
G1 X71.112 Y97.165 E21.35766
G1 X71.521 Y96.952 E21.37913
G1 X72.08 Y96.682 E21.40804
G1 X72.522 Y96.485 E21.43057
G1 X73.133 Y96.236 E21.46129
G1 X73.576 Y96.072 E21.48329
