;FLAVOR:Marlin
;TIME:3848
;Filament used: 1.30664m
;Layer height: 0.12
;MINX:80.349
;MINY:83.505
;MINZ:0.12
;MAXX:158.747
;MAXY:146.885
;MAXZ:9.96
;TARGET_MACHINE.NAME:Creality Ender-3
;Generated with Cura_SteamEngine 5.6.0
M140 S50
M105
M190 S50
M104 S200
M105
M109 S200
M82 ;absolute extrusion mode
; Ender 3 Custom Start G-code
G92 E0 ; Reset Extruder
G28 ; Home all axes
G1 Z2.0 F3000 ; Move Z Axis up little to prevent scratching of Heat Bed
G1 X0.1 Y20 Z0.3 F5000.0 ; Move to start position
G1 X0.1 Y200.0 Z0.3 F1500.0 E15 ; Draw the first line
G1 X0.4 Y200.0 Z0.3 F5000.0 ; Move to side a little
G1 X0.4 Y20 Z0.3 F1500.0 E30 ; Draw the second line
G92 E0 ; Reset Extruder
G1 Z2.0 F3000 ; Move Z Axis up little to prevent scratching of Heat Bed
G1 X5 Y20 Z0.3 F5000.0 ; Move over to prevent blob squish
G92 E0
G92 E0
G1 F2700 E-5
;LAYER_COUNT:83
;LAYER:0
M107
G0 F6000 X86.615 Y98.584 Z0.12
;TYPE:SKIRT
G1 F2700 E0
G1 F1200 X87.086 Y98.182 E0.01236
G1 X87.483 Y97.864 E0.02251
G1 X87.956 Y97.504 E0.03437
G1 X88.379 Y97.202 E0.04474
G1 X89.111 Y96.717 E0.06227
G1 X89.73 Y96.354 E0.07659
G1 X90.346 Y96.018 E0.09059
G1 X91.102 Y95.646 E0.1074
G1 X91.643 Y95.405 E0.11922
G1 X92.203 Y95.176 E0.1313
G1 X92.862 Y94.932 E0.14532
G1 X94.209 Y94.468 E0.17375
G1 X96.688 Y93.573 E0.22635
G1 X98.969 Y92.676 E0.27526
G1 X101.337 Y91.665 E0.32664
G1 X103.598 Y90.627 E0.37629
G1 X105.897 Y89.491 E0.42747
G1 X108.08 Y88.332 E0.47679
G1 X110.274 Y87.087 E0.52713
G1 X111.658 Y86.254 E0.55937
G1 X112.229 Y85.926 E0.57251
G1 X112.95 Y85.537 E0.58886
G1 X113.63 Y85.206 E0.60395
G1 X114.055 Y85.018 E0.61322
G1 X114.603 Y84.793 E0.62504
G1 X115.019 Y84.636 E0.63392
G1 X115.646 Y84.421 E0.64715
G1 X116.194 Y84.251 E0.6586
G1 X116.849 Y84.072 E0.67215
G1 X117.311 Y83.961 E0.68163
G1 X117.948 Y83.83 E0.69461
G1 X118.426 Y83.746 E0.70429
G1 X119.083 Y83.651 E0.71754
G1 X119.609 Y83.593 E0.7281
G1 X120.354 Y83.536 E0.74301
G1 X120.932 Y83.513 E0.75455
G1 X121.534 Y83.505 E0.76657
G1 X121.951 Y83.511 E0.77489
G1 X122.629 Y83.544 E0.78844
G1 X123.375 Y83.604 E0.80337
G1 X124.442 Y83.746 E0.82485
G1 X125.007 Y83.853 E0.83633
G1 X125.741 Y84.017 E0.85134
G1 X126.415 Y84.194 E0.86524
G1 X127.158 Y84.418 E0.88073
G1 X127.673 Y84.594 E0.89159
G1 X128.265 Y84.817 E0.90422
G1 X128.711 Y85.001 E0.91384
G1 X129.548 Y85.38 E0.93218
G1 X130.302 Y85.774 E0.94916
G1 X130.906 Y86.121 E0.96306
G1 X131.43 Y86.442 E0.97532
G1 X131.776 Y86.669 E0.98358
G1 X132.316 Y87.047 E0.99673
G1 X132.773 Y87.388 E1.00811
G1 X133.308 Y87.815 E1.02177
G1 X133.637 Y88.096 E1.03041
G1 X134.127 Y88.54 E1.0436
G1 X134.766 Y89.165 E1.06144
G1 X135.634 Y90.058 E1.08629
G1 X137.49 Y91.913 E1.13866
G1 X139.34 Y93.663 E1.18948
G1 X141.191 Y95.314 E1.23898
G1 X143.118 Y96.938 E1.28927
G1 X145.091 Y98.509 E1.3396
G1 X147.053 Y99.982 E1.38856
G1 X150.75 Y102.556 E1.47846
G1 X151.527 Y103.132 E1.49776
G1 X152.079 Y103.574 E1.51187
G1 X152.462 Y103.902 E1.52193
G1 X152.937 Y104.336 E1.53477
G1 X153.242 Y104.631 E1.54324
G1 X153.739 Y105.147 E1.55754
G1 X154.244 Y105.707 E1.57259
G1 X154.957 Y106.584 E1.59514
G1 X155.363 Y107.142 E1.60891
G1 X155.839 Y107.853 E1.62599
G1 X156.132 Y108.332 E1.63719
G1 X156.467 Y108.917 E1.65065
G1 X156.729 Y109.415 E1.66188
G1 X157.035 Y110.041 E1.67578
G1 X157.433 Y110.971 E1.69597
G1 X157.612 Y111.441 E1.706
G1 X157.836 Y112.09 E1.71971
G1 X157.999 Y112.616 E1.7307
G1 X158.181 Y113.282 E1.74447
G1 X158.292 Y113.744 E1.75396
G1 X158.422 Y114.372 E1.76675
G1 X158.506 Y114.85 E1.77644
G1 X158.598 Y115.496 E1.78946
G1 X158.662 Y116.054 E1.80067
G1 X158.729 Y116.953 E1.81866
G1 X158.747 Y117.667 E1.83291
G1 X158.742 Y118.268 E1.84491
G1 X158.709 Y119.007 E1.85967
G1 X158.661 Y119.616 E1.87186
G1 X158.593 Y120.225 E1.88409
G1 X158.527 Y120.71 E1.89386
G1 X158.383 Y121.514 E1.91016
G1 X158.149 Y122.515 E1.93067
G1 X158.021 Y122.979 E1.94028
G1 X157.812 Y123.655 E1.9544
G1 X157.617 Y124.217 E1.96627
G1 X157.274 Y125.094 E1.98506
G1 X156.979 Y125.751 E1.99943
G1 X156.757 Y126.206 E2.00954
G1 X156.445 Y126.794 E2.02282
G1 X156.226 Y127.176 E2.03161
G1 X155.908 Y127.694 E2.04374
G1 X155.521 Y128.289 E2.0579
G1 X155.144 Y128.832 E2.07109
G1 X154.923 Y129.128 E2.07846
G1 X154.475 Y129.69 E2.09281
G1 X154.121 Y130.105 E2.10369
G1 X153.676 Y130.593 E2.11687
G1 X153.329 Y130.951 E2.12682
G1 X152.873 Y131.393 E2.1395
G1 X152.525 Y131.711 E2.1489
G1 X152.002 Y132.158 E2.16263
G1 X151.555 Y132.516 E2.17406
G1 X151.067 Y132.884 E2.18626
G1 X150.715 Y133.134 E2.19487
G1 X150.097 Y133.541 E2.20964
G1 X149.723 Y133.77 E2.21839
G1 X149.154 Y134.093 E2.23145
G1 X148.394 Y134.495 E2.24861
G1 X147.175 Y135.046 E2.2753
G1 X146.147 Y135.433 E2.29722
G1 X144.88 Y135.868 E2.32396
G1 X142.494 Y136.72 E2.37452
G1 X140.123 Y137.643 E2.42529
G1 X137.842 Y138.606 E2.4747
G1 X135.534 Y139.658 E2.52532
G1 X133.264 Y140.772 E2.57578
G1 X131.076 Y141.925 E2.62514
G1 X128.831 Y143.188 E2.67654
G1 X126.805 Y144.391 E2.72356
G1 X126.241 Y144.707 E2.73646
G1 X125.542 Y145.055 E2.75205
G1 X124.914 Y145.34 E2.76581
G1 X124.313 Y145.591 E2.77881
G1 X123.902 Y145.747 E2.78758
G1 X123.24 Y145.975 E2.80155
G1 X122.707 Y146.14 E2.81269
G1 X122.071 Y146.314 E2.82584
G1 X121.607 Y146.426 E2.83537
G1 X120.958 Y146.56 E2.84859
G1 X120.48 Y146.644 E2.85828
G1 X119.823 Y146.739 E2.87153
G1 X119.297 Y146.797 E2.88209
G1 X118.552 Y146.854 E2.897
G1 X117.974 Y146.877 E2.90854
G1 X117.372 Y146.885 E2.92056
G1 X116.955 Y146.879 E2.92888
G1 X116.277 Y146.846 E2.94243
G1 X115.531 Y146.786 E2.95736
G1 X114.464 Y146.644 E2.97884
G1 X113.899 Y146.537 E2.99032
G1 X113.165 Y146.373 E3.00533
G1 X112.491 Y146.196 E3.01923
G1 X111.765 Y145.978 E3.03436
G1 X111.262 Y145.806 E3.04497
G1 X110.622 Y145.566 E3.05861
G1 X110.116 Y145.356 E3.06954
G1 X109.494 Y145.077 E3.08315
G1 X109.02 Y144.842 E3.0937
G1 X108.614 Y144.628 E3.10286
G1 X107.968 Y144.258 E3.11772
G1 X107.472 Y143.95 E3.12937
G1 X106.74 Y143.451 E3.14705
G1 X106.14 Y143.006 E3.16196
G1 X105.589 Y142.567 E3.17602
G1 X105.302 Y142.322 E3.18355
G1 X104.806 Y141.872 E3.19691
G1 X104.04 Y141.121 E3.21832
G1 X102.975 Y140.008 E3.24906
G1 X101.22 Y138.24 E3.29877
G1 X99.353 Y136.462 E3.35022
G1 X97.52 Y134.816 E3.39939
G1 X95.595 Y133.18 E3.4498
G1 X93.601 Y131.579 E3.50083
G1 X91.628 Y130.09 E3.55016
G1 X89.531 Y128.594 E3.60157
G1 X88.382 Y127.802 E3.62942
G1 X87.559 Y127.195 E3.64982
G1 X87.022 Y126.765 E3.66355
G1 X86.637 Y126.435 E3.67367
G1 X86.158 Y126 E3.68658
G1 X85.868 Y125.718 E3.69466
G1 X85.4 Y125.235 E3.70808
G1 X85.006 Y124.802 E3.71976
G1 X84.575 Y124.296 E3.73303
G1 X84.265 Y123.909 E3.74292
G1 X83.884 Y123.404 E3.75554
G1 X83.625 Y123.039 E3.76448
G1 X83.244 Y122.461 E3.77829
G1 X82.963 Y122.003 E3.78901
G1 X82.633 Y121.424 E3.80231
G1 X82.383 Y120.951 E3.81299
G1 X82.086 Y120.345 E3.82646
G1 X81.9 Y119.93 E3.83553
G1 X81.663 Y119.364 E3.84778
G1 X81.485 Y118.896 E3.85777
G1 X81.26 Y118.244 E3.87154
G1 X81.097 Y117.719 E3.88251
G1 X80.916 Y117.057 E3.8962
G1 X80.805 Y116.595 E3.90568
G1 X80.674 Y115.957 E3.91868
G1 X80.589 Y115.473 E3.92849
G1 X80.497 Y114.828 E3.94149
G1 X80.434 Y114.281 E3.95248
G1 X80.38 Y113.613 E3.96585
G1 X80.361 Y113.205 E3.974
G1 X80.349 Y112.523 E3.98762
G1 X80.356 Y112.023 E3.99759
G1 X80.387 Y111.375 E4.01054
G1 X80.436 Y110.734 E4.02337
G1 X80.51 Y110.058 E4.03694
G1 X80.567 Y109.657 E4.04502
G1 X80.683 Y108.99 E4.05853
G1 X80.793 Y108.465 E4.06924
G1 X80.945 Y107.832 E4.08223
G1 X81.069 Y107.378 E4.09162
G1 X81.26 Y106.752 E4.10468
G1 X81.433 Y106.244 E4.11539
G1 X81.717 Y105.503 E4.13123
G1 X81.985 Y104.878 E4.1448
G1 X82.353 Y104.101 E4.16196
G1 X82.634 Y103.564 E4.17405
G1 X83.096 Y102.772 E4.19235
G1 X83.509 Y102.134 E4.20752
G1 X83.947 Y101.508 E4.22276
G1 X84.233 Y101.13 E4.23222
G1 X84.633 Y100.631 E4.24498
G1 X84.938 Y100.273 E4.25437
G1 X85.381 Y99.785 E4.26752
G1 X85.791 Y99.362 E4.27928
G1 X86.298 Y98.87 E4.29338
G1 X86.615 Y98.584 E4.3019
G0 F6000 X86.875 Y98.888
G1 F1200 X87.336 Y98.494 E4.314
G1 X87.725 Y98.182 E4.32395
G1 X88.189 Y97.829 E4.33559
G1 X88.6 Y97.535 E4.34567
G1 X89.314 Y97.062 E4.36276
G1 X89.921 Y96.705 E4.37681
G1 X90.523 Y96.377 E4.3905
G1 X91.265 Y96.011 E4.40701
G1 X91.795 Y95.775 E4.41858
G1 X92.342 Y95.551 E4.43038
G1 X92.992 Y95.31 E4.44421
G1 X94.339 Y94.846 E4.47265
G1 X96.824 Y93.949 E4.52537
G1 X99.126 Y93.044 E4.57473
G1 X101.504 Y92.029 E4.62633
G1 X103.765 Y90.991 E4.67598
G1 X106.074 Y89.849 E4.72738
G1 X108.277 Y88.68 E4.77715
G1 X110.48 Y87.43 E4.8277
G1 X111.857 Y86.601 E4.85977
G1 X112.419 Y86.278 E4.87271
G1 X113.125 Y85.897 E4.88872
G1 X113.792 Y85.572 E4.90353
G1 X114.207 Y85.388 E4.91259
G1 X114.744 Y85.167 E4.92417
G1 X115.149 Y85.014 E4.93281
G1 X115.764 Y84.803 E4.94579
G1 X116.3 Y84.637 E4.95699
G1 X116.943 Y84.461 E4.97029
G1 X117.392 Y84.353 E4.97951
G1 X118.017 Y84.224 E4.99224
G1 X118.483 Y84.142 E5.00168
G1 X119.127 Y84.049 E5.01467
G1 X119.64 Y83.992 E5.02497
G1 X120.37 Y83.936 E5.03958
G1 X120.937 Y83.913 E5.0509
G1 X121.528 Y83.905 E5.0627
G1 X121.932 Y83.911 E5.07076
G1 X122.597 Y83.943 E5.08405
G1 X123.322 Y84.001 E5.09856
G1 X124.389 Y84.143 E5.12004
G1 X124.92 Y84.243 E5.13083
G1 X125.64 Y84.404 E5.14555
G1 X126.3 Y84.577 E5.15917
G1 X127.028 Y84.796 E5.17434
G1 X127.532 Y84.969 E5.18497
G1 X128.113 Y85.187 E5.19735
G1 X128.546 Y85.365 E5.2067
G1 X129.363 Y85.735 E5.2246
G1 X130.103 Y86.121 E5.24125
G1 X130.697 Y86.462 E5.25492
G1 X131.211 Y86.777 E5.26695
G1 X131.547 Y86.997 E5.27496
G1 X132.077 Y87.367 E5.28786
G1 X132.524 Y87.701 E5.299
G1 X133.048 Y88.119 E5.31238
G1 X133.368 Y88.392 E5.32077
G1 X133.847 Y88.826 E5.33367
G1 X134.479 Y89.444 E5.35131
G1 X135.351 Y90.341 E5.37627
G1 X137.215 Y92.204 E5.42887
G1 X139.065 Y93.954 E5.47969
G1 X140.933 Y95.62 E5.52964
G1 X142.86 Y97.244 E5.57993
G1 X144.851 Y98.829 E5.63071
G1 X146.824 Y100.31 E5.67994
G1 X150.512 Y102.878 E5.76963
G1 X151.277 Y103.444 E5.78862
G1 X151.819 Y103.878 E5.80247
G1 X152.192 Y104.198 E5.81228
G1 X152.659 Y104.624 E5.82489
G1 X152.954 Y104.909 E5.83308
G1 X153.442 Y105.415 E5.84711
G1 X153.947 Y105.975 E5.86216
G1 X154.634 Y106.82 E5.88389
G1 X155.031 Y107.364 E5.89733
G1 X155.498 Y108.062 E5.91409
G1 X155.785 Y108.531 E5.92506
G1 X156.113 Y109.104 E5.93824
G1 X156.37 Y109.591 E5.94923
G1 X156.667 Y110.199 E5.96273
G1 X157.059 Y111.113 E5.98258
G1 X157.234 Y111.572 E5.99238
G1 X157.454 Y112.209 E6.00583
G1 X157.613 Y112.721 E6.01653
G1 X157.792 Y113.376 E6.03008
G1 X157.9 Y113.825 E6.03929
G1 X158.028 Y114.441 E6.05185
G1 X158.11 Y114.907 E6.06129
G1 X158.201 Y115.541 E6.07407
G1 X158.263 Y116.084 E6.08498
G1 X158.329 Y116.963 E6.10257
G1 X158.347 Y117.664 E6.11656
G1 X158.342 Y118.25 E6.12826
G1 X158.31 Y118.976 E6.14276
G1 X158.263 Y119.572 E6.15469
G1 X158.197 Y120.171 E6.16672
G1 X158.133 Y120.639 E6.17614
G1 X157.989 Y121.443 E6.19244
G1 X157.763 Y122.409 E6.21224
G1 X157.639 Y122.861 E6.2216
G1 X157.434 Y123.524 E6.23545
G1 X157.244 Y124.072 E6.24702
G1 X156.909 Y124.93 E6.2654
G1 X156.62 Y125.575 E6.27951
G1 X156.403 Y126.019 E6.28937
G1 X156.098 Y126.595 E6.30237
G1 X155.885 Y126.967 E6.31093
G1 X155.573 Y127.476 E6.32284
G1 X155.192 Y128.061 E6.33678
G1 X154.823 Y128.593 E6.3497
G1 X154.61 Y128.879 E6.35681
G1 X154.171 Y129.43 E6.37087
G1 X153.825 Y129.835 E6.3815
G1 X153.38 Y130.323 E6.39468
G1 X153.05 Y130.664 E6.40415
G1 X152.603 Y131.098 E6.41658
G1 X152.265 Y131.407 E6.42572
G1 X151.752 Y131.846 E6.4392
G1 X151.314 Y132.197 E6.4504
G1 X150.836 Y132.558 E6.46235
G1 X150.495 Y132.8 E6.4707
G1 X149.889 Y133.2 E6.48519
G1 X149.525 Y133.422 E6.4937
G1 X148.967 Y133.739 E6.5065
G1 X148.207 Y134.141 E6.52366
G1 X147.034 Y134.672 E6.54936
G1 X146.017 Y135.055 E6.57104
G1 X144.745 Y135.491 E6.59788
G1 X142.359 Y136.343 E6.64844
G1 X139.978 Y137.27 E6.69943
G1 X137.676 Y138.242 E6.74929
G1 X135.368 Y139.294 E6.79991
G1 X133.078 Y140.418 E6.85082
G1 X130.88 Y141.576 E6.9004
G1 X128.635 Y142.839 E6.9518
G1 X126.61 Y144.042 E6.9988
G1 X126.062 Y144.349 E7.01134
G1 X125.377 Y144.691 E7.02662
G1 X124.76 Y144.971 E7.04014
G1 X124.171 Y145.217 E7.05288
G1 X123.772 Y145.369 E7.0614
G1 X123.122 Y145.593 E7.07512
G1 X122.601 Y145.754 E7.086
G1 X121.977 Y145.925 E7.09891
G1 X121.526 Y146.034 E7.10817
G1 X120.889 Y146.166 E7.12115
G1 X120.423 Y146.248 E7.1306
G1 X119.779 Y146.341 E7.14358
G1 X119.266 Y146.398 E7.15388
G1 X118.536 Y146.454 E7.16849
G1 X117.969 Y146.477 E7.17982
G1 X117.378 Y146.485 E7.19161
G1 X116.974 Y146.479 E7.19968
G1 X116.309 Y146.447 E7.21296
G1 X115.584 Y146.389 E7.22748
G1 X114.517 Y146.247 E7.24896
G1 X113.986 Y146.147 E7.25974
G1 X113.266 Y145.986 E7.27446
G1 X112.606 Y145.813 E7.28808
G1 X111.894 Y145.599 E7.30292
G1 X111.402 Y145.431 E7.31329
G1 X110.775 Y145.196 E7.32665
G1 X110.28 Y144.991 E7.33734
G1 X109.671 Y144.718 E7.35066
G1 X109.206 Y144.488 E7.36102
G1 X108.813 Y144.281 E7.36988
G1 X108.179 Y143.918 E7.38446
G1 X107.697 Y143.619 E7.39578
G1 X106.978 Y143.13 E7.41313
G1 X106.389 Y142.693 E7.42777
G1 X105.849 Y142.263 E7.44154
G1 X105.571 Y142.026 E7.44883
G1 X105.086 Y141.586 E7.4619
G1 X104.329 Y140.844 E7.48305
G1 X103.264 Y139.731 E7.5138
G1 X101.504 Y137.958 E7.56365
G1 X99.629 Y136.172 E7.61533
G1 X97.787 Y134.518 E7.66473
G1 X95.854 Y132.875 E7.71536
G1 X93.851 Y131.267 E7.76662
G1 X91.86 Y129.764 E7.8164
G1 X89.763 Y128.268 E7.8678
G1 X88.619 Y127.48 E7.89553
G1 X87.809 Y126.883 E7.91561
G1 X87.282 Y126.461 E7.92908
G1 X86.906 Y126.139 E7.93896
G1 X86.437 Y125.713 E7.9516
G1 X86.155 Y125.439 E7.95945
G1 X85.696 Y124.966 E7.9726
G1 X85.31 Y124.542 E7.98404
G1 X84.887 Y124.046 E7.99705
G1 X84.584 Y123.668 E8.00672
G1 X84.21 Y123.172 E8.01912
G1 X83.959 Y122.819 E8.02776
G1 X83.585 Y122.252 E8.04132
G1 X83.311 Y121.805 E8.05178
G1 X82.981 Y121.226 E8.06508
G1 X82.742 Y120.775 E8.07526
G1 X82.451 Y120.181 E8.08846
G1 X82.269 Y119.776 E8.09733
G1 X82.037 Y119.221 E8.10933
G1 X81.863 Y118.765 E8.11907
G1 X81.642 Y118.125 E8.13258
G1 X81.483 Y117.613 E8.14328
G1 X81.305 Y116.963 E8.15673
G1 X81.197 Y116.514 E8.16595
G1 X81.068 Y115.888 E8.1787
G1 X80.985 Y115.416 E8.18826
G1 X80.894 Y114.783 E8.20103
G1 X80.833 Y114.249 E8.21175
G1 X80.78 Y113.594 E8.22487
G1 X80.761 Y113.198 E8.23278
G1 X80.749 Y112.529 E8.24613
G1 X80.756 Y112.042 E8.25585
G1 X80.786 Y111.405 E8.26858
G1 X80.834 Y110.777 E8.28115
G1 X80.906 Y110.114 E8.29445
G1 X80.961 Y109.726 E8.30227
G1 X81.075 Y109.072 E8.31552
G1 X81.182 Y108.558 E8.326
G1 X81.331 Y107.937 E8.33874
G1 X81.451 Y107.495 E8.34788
G1 X81.639 Y106.881 E8.3607
G1 X81.807 Y106.387 E8.37111
G1 X82.085 Y105.66 E8.38664
G1 X82.346 Y105.049 E8.3999
G1 X82.707 Y104.287 E8.41673
G1 X82.98 Y103.766 E8.42847
G1 X83.442 Y102.974 E8.44677
G1 X83.837 Y102.363 E8.46128
G1 X84.266 Y101.749 E8.47623
G1 X84.545 Y101.38 E8.48546
G1 X84.938 Y100.89 E8.498
G1 X85.234 Y100.542 E8.50712
G1 X85.668 Y100.063 E8.52002
G1 X86.069 Y99.649 E8.53152
G1 X86.566 Y99.167 E8.54533
G1 X86.875 Y98.888 E8.55364
G0 F6000 X87.134 Y99.192
G1 F1200 X87.587 Y98.806 E8.56552
G1 X87.967 Y98.5 E8.57526
G1 X88.422 Y98.154 E8.58666
G1 X88.821 Y97.868 E8.59646
G1 X89.517 Y97.407 E8.61312
G1 X90.112 Y97.056 E8.6269
G1 X90.7 Y96.736 E8.64026
G1 X91.428 Y96.376 E8.65647
G1 X91.947 Y96.145 E8.66781
G1 X92.481 Y95.926 E8.67933
G1 X93.122 Y95.688 E8.69297
G1 X94.469 Y95.224 E8.7214
G1 X96.96 Y94.325 E8.77425
G1 X99.283 Y93.412 E8.82406
G1 X101.671 Y92.393 E8.87587
G1 X103.932 Y91.355 E8.92552
G1 X106.251 Y90.208 E8.97715
G1 X108.465 Y89.033 E9.02717
G1 X110.686 Y87.773 E9.07813
G1 X112.056 Y86.948 E9.11004
G1 X112.609 Y86.63 E9.12277
G1 X113.3 Y86.257 E9.13844
G1 X113.954 Y85.938 E9.15296
G1 X114.359 Y85.758 E9.16181
G1 X114.886 Y85.541 E9.17318
G1 X115.279 Y85.392 E9.18157
G1 X115.882 Y85.185 E9.19429
G1 X116.406 Y85.023 E9.20524
G1 X117.036 Y84.85 E9.21828
G1 X117.473 Y84.745 E9.22725
G1 X118.086 Y84.618 E9.23974
G1 X118.54 Y84.538 E9.24894
G1 X119.172 Y84.447 E9.26168
G1 X119.671 Y84.391 E9.2717
G1 X120.387 Y84.336 E9.28603
G1 X120.943 Y84.313 E9.29714
G1 X121.522 Y84.305 E9.30869
G1 X121.913 Y84.311 E9.3165
G1 X122.565 Y84.342 E9.32952
