;FLAVOR:Marlin
;TIME:330
;Filament used: 0.168081m
;Layer height: 0.28
;MINX:109.311
;MINY:96.713
;MINZ:0.28
;MAXX:156.143
;MAXY:133.283
;MAXZ:5.32
;TARGET_MACHINE.NAME:Creality Ender-3
;Generated with Cura_SteamEngine 5.6.0
M140 S50
M105
M190 S50
M104 S200
M105
M109 S200
M82 ;absolute extrusion mode
; Ender 3 Custom Start G-code
G92 E0 ; Reset Extruder
G28 ; Home all axes
G1 Z2.0 F3000 ; Move Z Axis up little to prevent scratching of Heat Bed
G1 X0.1 Y20 Z0.3 F5000.0 ; Move to start position
G1 X0.1 Y200.0 Z0.3 F1500.0 E15 ; Draw the first line
G1 X0.4 Y200.0 Z0.3 F5000.0 ; Move to side a little
G1 X0.4 Y20 Z0.3 F1500.0 E30 ; Draw the second line
G92 E0 ; Reset Extruder
G1 Z2.0 F3000 ; Move Z Axis up little to prevent scratching of Heat Bed
G1 X5 Y20 Z0.3 F5000.0 ; Move over to prevent blob squish
G92 E0
G92 E0
G1 F2700 E-5
;LAYER_COUNT:19
;LAYER:0
M107
G0 F6000 X112.663 Y101.043 Z0.28
;TYPE:SKIRT
G1 F2700 E0
G1 F1200 X113.333 Y100.347 E0.04498
G1 X113.985 Y99.767 E0.08562
G1 X114.778 Y99.147 E0.13249
G1 X115.742 Y98.534 E0.18569
G1 X116.163 Y98.3 E0.20811
G1 X117.243 Y97.768 E0.26417
G1 X118.192 Y97.406 E0.31147
G1 X119.255 Y97.108 E0.36287
G1 X119.565 Y97.038 E0.37767
G1 X120.805 Y96.834 E0.43619
G1 X121.191 Y96.795 E0.45425
G1 X122.159 Y96.738 E0.49941
G1 X122.998 Y96.759 E0.53849
G1 X124.719 Y96.866 E0.61878
G1 X127.3 Y96.981 E0.73908
G1 X129.787 Y97.022 E0.8549
G1 X131.277 Y96.998 E0.92429
G1 X131.562 Y97.006 E0.93756
G1 X133.134 Y97 E1.01076
G1 X134.379 Y97.021 E1.06874
G1 X136.868 Y96.993 E1.18465
G1 X139.424 Y96.891 E1.30376
G1 X141.656 Y96.742 E1.40793
G1 X142.647 Y96.713 E1.45409
G1 X143.861 Y96.756 E1.51066
G1 X144.897 Y96.892 E1.55931
G1 X145.832 Y97.093 E1.60384
G1 X146.701 Y97.339 E1.6459
G1 X147.922 Y97.819 E1.70699
G1 X148.257 Y97.975 E1.72419
G1 X149.501 Y98.657 E1.79025
G1 X149.736 Y98.807 E1.80324
G1 X150.845 Y99.615 E1.86713
G1 X151.155 Y99.872 E1.88588
G1 X151.872 Y100.528 E1.93113
G1 X152.535 Y101.245 E1.9766
G1 X153.237 Y102.153 E2.03004
G1 X153.647 Y102.783 E2.06505
G1 X153.885 Y103.177 E2.08648
G1 X154.318 Y103.97 E2.12855
G1 X154.721 Y104.876 E2.17472
G1 X155.075 Y105.886 E2.22456
G1 X155.29 Y106.69 E2.26331
G1 X155.483 Y107.636 E2.30827
G1 X155.587 Y108.469 E2.34736
G1 X155.654 Y109.635 E2.40174
G1 X155.7 Y112.691 E2.54406
G1 X155.812 Y115.153 E2.65882
G1 X156.091 Y118.664 E2.82282
G1 X156.134 Y119.378 E2.85613
G1 X156.143 Y120.346 E2.9012
G1 X156.089 Y121.121 E2.93738
G1 X156.045 Y121.535 E2.95676
G1 X155.895 Y122.516 E3.00297
G1 X155.658 Y123.475 E3.04897
G1 X155.242 Y124.638 E3.10649
G1 X154.993 Y125.222 E3.13605
G1 X154.602 Y126.036 E3.1781
G1 X154.1 Y126.894 E3.22439
G1 X153.488 Y127.767 E3.27403
G1 X152.902 Y128.48 E3.317
G1 X152.289 Y129.143 E3.35905
G1 X151.518 Y129.842 E3.40751
G1 X151.297 Y130.023 E3.42081
G1 X150.521 Y130.603 E3.46592
G1 X149.814 Y131.046 E3.50477
G1 X149.47 Y131.242 E3.52321
G1 X148.611 Y131.685 E3.56821
G1 X147.81 Y132.02 E3.60864
G1 X146.9 Y132.335 E3.65348
G1 X146.175 Y132.528 E3.68842
G1 X145.18 Y132.727 E3.73566
G1 X144.297 Y132.833 E3.77708
G1 X143.339 Y132.892 E3.82177
G1 X142.731 Y132.887 E3.85008
G1 X140.007 Y132.783 E3.97701
G1 X137.516 Y132.758 E4.09301
G1 X134.375 Y132.825 E4.2393
G1 X133.439 Y132.862 E4.28292
G1 X132.992 Y132.87 E4.30374
G1 X132.062 Y132.868 E4.34704
G1 X129.516 Y132.895 E4.4656
G1 X126.991 Y132.994 E4.58327
G1 X124.329 Y133.175 E4.70751
G1 X123.532 Y133.239 E4.74474
G1 X122.896 Y133.273 E4.7744
G1 X122.402 Y133.283 E4.7974
G1 X121.464 Y133.26 E4.84109
G1 X120.468 Y133.148 E4.88776
G1 X119.733 Y133.006 E4.92262
G1 X119.398 Y132.929 E4.93863
G1 X118.432 Y132.659 E4.98533
G1 X117.563 Y132.34 E5.02844
G1 X116.736 Y131.979 E5.07045
G1 X115.656 Y131.376 E5.12805
G1 X115.32 Y131.161 E5.14662
G1 X114.22 Y130.355 E5.21012
G1 X113.894 Y130.081 E5.22995
G1 X113.202 Y129.444 E5.27375
G1 X112.441 Y128.6 E5.32667
G1 X112.206 Y128.309 E5.34408
G1 X111.669 Y127.582 E5.38617
G1 X111.085 Y126.616 E5.43873
G1 X110.611 Y125.686 E5.48734
G1 X110.199 Y124.677 E5.53808
G1 X109.884 Y123.631 E5.58895
G1 X109.766 Y123.154 E5.61183
G1 X109.575 Y122.199 E5.65718
G1 X109.475 Y121.301 E5.69925
G1 X109.449 Y120.553 E5.73411
G1 X109.452 Y119.635 E5.77685
G1 X109.512 Y117.363 E5.88268
G1 X109.506 Y114.819 E6.00114
G1 X109.429 Y112.307 E6.11817
G1 X109.32 Y110.287 E6.21236
G1 X109.311 Y109.384 E6.25441
G1 X109.353 Y108.7 E6.28632
G1 X109.39 Y108.311 E6.30452
G1 X109.528 Y107.339 E6.35023
G1 X109.793 Y106.241 E6.40283
G1 X109.939 Y105.751 E6.42664
G1 X110.262 Y104.834 E6.47191
G1 X110.633 Y104.011 E6.51394
G1 X111.116 Y103.132 E6.56064
G1 X111.598 Y102.369 E6.60267
G1 X112.371 Y101.376 E6.66126
G1 X112.663 Y101.043 E6.68189
G0 F6000 X112.951 Y101.32
G1 F1200 X113.599 Y100.646 E6.72542
G1 X114.232 Y100.082 E6.7649
G1 X114.993 Y99.485 E6.80994
G1 X115.957 Y98.872 E6.86313
G1 X116.34 Y98.659 E6.88354
G1 X117.386 Y98.142 E6.93787
G1 X118.335 Y97.78 E6.98517
G1 X119.343 Y97.498 E7.03391
G1 X119.63 Y97.433 E7.04761
G1 X120.846 Y97.232 E7.105
G1 X121.215 Y97.194 E7.12227
G1 X122.149 Y97.138 E7.16584
G1 X122.973 Y97.158 E7.20422
G1 X124.701 Y97.266 E7.28484
G1 X127.282 Y97.381 E7.40514
G1 X129.786 Y97.422 E7.52175
G1 X131.266 Y97.398 E7.59068
G1 X131.553 Y97.406 E7.60405
G1 X133.127 Y97.4 E7.67734
G1 X134.376 Y97.421 E7.73551
G1 X136.884 Y97.393 E7.8523
G1 X139.44 Y97.291 E7.97141
G1 X141.668 Y97.142 E8.07539
G1 X142.633 Y97.113 E8.12034
G1 X143.809 Y97.153 E8.17513
G1 X144.845 Y97.289 E8.22379
G1 X145.723 Y97.478 E8.26561
G1 X146.592 Y97.724 E8.30766
G1 X147.753 Y98.182 E8.36578
G1 X148.088 Y98.338 E8.38298
G1 X149.287 Y98.995 E8.44665
G1 X149.5 Y99.13 E8.45839
G1 X150.609 Y99.938 E8.52228
G1 X150.885 Y100.168 E8.53901
G1 X151.578 Y100.8 E8.58268
G1 X152.241 Y101.517 E8.62816
G1 X152.902 Y102.371 E8.67844
G1 X153.305 Y102.99 E8.71284
G1 X153.534 Y103.369 E8.73345
G1 X153.967 Y104.162 E8.77553
G1 X154.344 Y105.009 E8.8187
G1 X154.689 Y105.99 E8.86712
G1 X154.898 Y106.77 E8.90472
G1 X155.086 Y107.686 E8.94826
G1 X155.19 Y108.519 E8.98735
G1 X155.254 Y109.641 E9.03968
G1 X155.3 Y112.709 E9.18256
G1 X155.413 Y115.185 E9.29797
G1 X155.692 Y118.688 E9.4616
G1 X155.734 Y119.382 E9.49397
G1 X155.744 Y120.318 E9.53756
G1 X155.691 Y121.079 E9.57308
G1 X155.647 Y121.493 E9.59247
G1 X155.506 Y122.421 E9.63618
G1 X155.281 Y123.34 E9.68023
G1 X154.865 Y124.503 E9.73775
G1 X154.632 Y125.049 E9.76539
G1 X154.241 Y125.863 E9.80744
G1 X153.772 Y126.665 E9.8507
G1 X153.179 Y127.513 E9.89888
G1 X152.608 Y128.208 E9.94077
G1 X151.995 Y128.871 E9.98281
G1 X151.264 Y129.533 E10.02873
G1 X151.057 Y129.703 E10.04121
G1 X150.308 Y130.264 E10.08478
G1 X149.615 Y130.699 E10.12288
G1 X149.287 Y130.887 E10.14048
G1 X148.456 Y131.316 E10.18403
G1 X147.679 Y131.642 E10.22327
G1 X146.797 Y131.948 E10.26674
G1 X146.072 Y132.141 E10.30167
G1 X145.132 Y132.33 E10.34632
G1 X144.272 Y132.434 E10.38666
G1 X143.342 Y132.492 E10.43004
G1 X142.746 Y132.487 E10.4578
G1 X140.022 Y132.383 E10.58473
G1 X137.511 Y132.358 E10.70166
G1 X134.359 Y132.425 E10.84846
G1 X133.432 Y132.462 E10.89166
G1 X132.993 Y132.47 E10.91211
G1 X132.059 Y132.468 E10.9556
G1 X129.5 Y132.495 E11.07476
G1 X126.975 Y132.594 E11.19243
G1 X124.297 Y132.776 E11.31741
G1 X123.511 Y132.84 E11.35414
G1 X122.888 Y132.873 E11.38319
G1 X122.412 Y132.883 E11.40535
G1 X121.474 Y132.86 E11.44905
G1 X120.544 Y132.755 E11.49263
G1 X119.823 Y132.616 E11.52682
G1 X119.488 Y132.539 E11.54282
G1 X118.57 Y132.284 E11.58719
G1 X117.723 Y131.973 E11.6292
G1 X116.896 Y131.612 E11.67122
G1 X115.871 Y131.039 E11.7259
G1 X115.556 Y130.838 E11.7433
G1 X114.477 Y130.048 E11.80557
G1 X114.164 Y129.786 E11.82457
G1 X113.499 Y129.176 E11.86659
G1 X112.752 Y128.348 E11.91852
G1 X112.528 Y128.071 E11.93511
G1 X111.991 Y127.344 E11.97719
G1 X111.441 Y126.434 E12.02671
G1 X110.981 Y125.534 E12.07377
G1 X110.582 Y124.561 E12.12274
G1 X110.272 Y123.535 E12.17265
G1 X110.158 Y123.075 E12.19471
G1 X109.973 Y122.155 E12.23841
G1 X109.873 Y121.257 E12.28048
G1 X109.849 Y120.554 E12.31324
G1 X109.852 Y119.646 E12.35552
G1 X109.912 Y117.374 E12.46135
G1 X109.906 Y114.818 E12.58037
G1 X109.829 Y112.295 E12.6979
G1 X109.72 Y110.283 E12.79173
G1 X109.711 Y109.38 E12.83378
G1 X109.751 Y108.738 E12.86373
G1 X109.786 Y108.367 E12.88108
G1 X109.917 Y107.433 E12.925
G1 X110.182 Y106.335 E12.97759
G1 X110.317 Y105.883 E12.99956
G1 X110.627 Y104.998 E13.04322
G1 X110.998 Y104.175 E13.08526
G1 X111.454 Y103.346 E13.12932
G1 X111.936 Y102.583 E13.17134
G1 X112.672 Y101.639 E13.22708
G1 X112.951 Y101.32 E13.24681
G0 F6000 X113.24 Y101.597
G1 F1200 X113.865 Y100.945 E13.28887
G1 X114.498 Y100.381 E13.32834
G1 X115.208 Y99.823 E13.37039
G1 X116.172 Y99.21 E13.42359
G1 X116.517 Y99.017 E13.442
G1 X117.529 Y98.516 E13.49458
G1 X118.478 Y98.154 E13.54187
G1 X119.432 Y97.888 E13.58799
G1 X119.696 Y97.828 E13.6006
G1 X120.888 Y97.63 E13.65686
G1 X121.239 Y97.593 E13.67329
G1 X122.14 Y97.538 E13.71533
G1 X122.948 Y97.557 E13.75296
G1 X124.683 Y97.666 E13.83391
G1 X127.264 Y97.781 E13.95421
G1 X129.787 Y97.822 E14.07171
G1 X131.255 Y97.798 E14.14007
G1 X131.544 Y97.806 E14.15354
G1 X133.12 Y97.8 E14.22692
G1 X134.373 Y97.821 E14.28527
G1 X136.9 Y97.793 E14.40295
G1 X139.456 Y97.691 E14.52206
G1 X141.68 Y97.542 E14.62585
G1 X142.62 Y97.513 E14.66964
G1 X143.758 Y97.55 E14.72266
G1 X144.761 Y97.68 E14.76976
G1 X145.614 Y97.863 E14.81038
G1 X146.483 Y98.109 E14.85243
G1 X147.584 Y98.545 E14.90757
G1 X147.919 Y98.701 E14.92478
G1 X149.073 Y99.333 E14.98605
G1 X149.286 Y99.468 E14.99779
G1 X150.353 Y100.245 E15.05925
G1 X150.616 Y100.464 E15.07519
G1 X151.284 Y101.072 E15.11725
G1 X151.947 Y101.789 E15.16272
G1 X152.567 Y102.59 E15.20989
G1 X152.963 Y103.197 E15.24363
G1 X153.183 Y103.561 E15.26344
G1 X153.616 Y104.354 E15.30551
G1 X153.967 Y105.142 E15.34568
G1 X154.303 Y106.094 E15.39269
G1 X154.506 Y106.851 E15.42918
G1 X154.689 Y107.736 E15.47126
G1 X154.793 Y108.569 E15.51035
G1 X154.854 Y109.647 E15.56063
G1 X154.9 Y112.727 E15.70406
G1 X155.014 Y115.217 E15.82013
G1 X155.293 Y118.712 E15.98339
G1 X155.334 Y119.387 E16.01488
G1 X155.345 Y120.29 E16.05693
G1 X155.293 Y121.037 E16.09179
G1 X155.251 Y121.434 E16.11038
G1 X155.117 Y122.327 E16.15243
G1 X154.904 Y123.205 E16.1945
G1 X154.488 Y124.368 E16.25201
G1 X154.271 Y124.876 E16.27774
G1 X153.88 Y125.69 E16.31979
G1 X153.444 Y126.436 E16.36002
G1 X152.87 Y127.259 E16.40674
G1 X152.314 Y127.936 E16.44754
G1 X151.701 Y128.599 E16.48958
G1 X151.01 Y129.224 E16.53297
G1 X150.817 Y129.383 E16.54461
G1 X150.095 Y129.925 E16.58665
G1 X149.416 Y130.352 E16.624
G1 X149.103 Y130.532 E16.64081
G1 X148.301 Y130.947 E16.68286
G1 X147.547 Y131.264 E16.72094
G1 X146.694 Y131.561 E16.763
G1 X145.969 Y131.754 E16.79794
G1 X145.084 Y131.933 E16.83998
G1 X144.247 Y132.035 E16.87924
G1 X143.345 Y132.092 E16.92133
G1 X142.761 Y132.087 E16.94852
G1 X140.037 Y131.983 E17.07546
G1 X137.507 Y131.958 E17.19327
G1 X134.343 Y132.025 E17.34063
G1 X133.425 Y132.062 E17.38341
G1 X132.994 Y132.07 E17.40348
G1 X132.056 Y132.068 E17.44716
G1 X129.484 Y132.095 E17.56693
G1 X126.959 Y132.194 E17.6846
G1 X124.264 Y132.377 E17.81038
G1 X123.49 Y132.441 E17.84654
G1 X122.879 Y132.473 E17.87503
G1 X122.421 Y132.483 E17.89636
G1 X121.518 Y132.462 E17.93842
G1 X120.62 Y132.362 E17.98049
G1 X119.913 Y132.226 E18.01402
G1 X119.578 Y132.149 E18.03002
G1 X118.708 Y131.908 E18.07206
G1 X117.883 Y131.606 E18.11297
G1 X117.056 Y131.245 E18.15499
G1 X116.067 Y130.69 E18.20779
G1 X115.792 Y130.515 E18.22297
G1 X114.713 Y129.725 E18.28524
G1 X114.434 Y129.491 E18.3022
G1 X113.769 Y128.881 E18.34422
G1 X113.063 Y128.096 E18.39338
G1 X112.85 Y127.833 E18.40914
G1 X112.313 Y127.106 E18.45122
G1 X111.797 Y126.251 E18.49772
G1 X111.351 Y125.382 E18.54321
G1 X110.965 Y124.445 E18.59039
G1 X110.66 Y123.439 E18.63934
G1 X110.55 Y122.996 E18.6606
G1 X110.371 Y122.111 E18.70264
G1 X110.271 Y121.213 E18.74471
G1 X110.249 Y120.555 E18.77537
G1 X110.252 Y119.657 E18.81718
G1 X110.312 Y117.385 E18.92302
G1 X110.306 Y114.817 E19.04259
G1 X110.229 Y112.283 E19.16064
G1 X110.12 Y110.279 E19.25409
G1 X110.111 Y109.376 E19.29614
G1 X110.149 Y108.775 E19.32418
G1 X110.182 Y108.422 E19.34069
G1 X110.306 Y107.527 E19.38277
G1 X110.565 Y106.45 E19.43435
G1 X110.695 Y106.015 E19.45549
G1 X110.992 Y105.162 E19.49754
G1 X111.363 Y104.339 E19.53958
G1 X111.792 Y103.56 E19.58099
G1 X112.274 Y102.797 E19.62301
G1 X112.973 Y101.902 E19.67589
G1 X113.24 Y101.597 E19.69477
G1 F2700 E14.69477
;MESH:4.stl(3)
G0 F6000 X120.222 Y108.069
G0 X122.094 Y111.118
;TYPE:WALL-INNER
G1 F2700 E19.69477
G1 F1200 X122.494 Y111.12 E19.71339
G1 X122.953 Y110.973 E19.73584
G1 X123.273 Y110.739 E19.7543
G1 X123.431 Y110.565 E19.76524
G1 X123.63 Y110.17 E19.78583
G1 X123.703 Y109.74 E19.80614
G1 X123.679 Y109.498 E19.81747
G1 X123.56 Y109.125 E19.8357
G1 X123.278 Y108.737 E19.85803
G1 X122.951 Y108.498 E19.87689
G1 X122.589 Y108.369 E19.89479
G1 X122.361 Y108.335 E19.90552
G1 X121.96 Y108.362 E19.92424
G1 X121.648 Y108.499 E19.9401
G1 X121.334 Y108.727 E19.95817
G1 X121.047 Y109.118 E19.98076
G1 X120.925 Y109.489 E19.99894
G1 X120.924 Y109.973 E20.02148
G1 X121.041 Y110.342 E20.03951
G1 X121.325 Y110.735 E20.06208
G1 X121.642 Y110.968 E20.0804
G1 X122.094 Y111.118 E20.10258
G0 F6000 X122.296 Y111.534
;TYPE:WALL-OUTER
G1 F1200 X122.548 Y111.517 E20.11434
G1 X122.852 Y111.454 E20.12879
G1 X123.25 Y111.28 E20.14902
G1 X123.551 Y111.029 E20.16727
G1 X123.756 Y110.803 E20.18148
G1 X123.981 Y110.414 E20.2024
G1 X124.072 Y110.052 E20.21978
G1 X124.105 Y109.742 E20.2343
G1 X124.074 Y109.429 E20.24895
G1 X123.981 Y109.056 E20.26685
G1 X123.765 Y108.681 E20.287
G1 X123.557 Y108.449 E20.30151
G1 X123.363 Y108.285 E20.31334
G1 X123.039 Y108.08 E20.33119
G1 X122.673 Y107.977 E20.34889
G1 X122.377 Y107.933 E20.36283
G1 X122.04 Y107.956 E20.37856
G1 X121.756 Y108.015 E20.39206
G1 X121.349 Y108.194 E20.41277
G1 X121.057 Y108.437 E20.43046
G1 X120.847 Y108.668 E20.44499
G1 X120.687 Y108.941 E20.45973
G1 X120.592 Y109.175 E20.47149
G1 X120.53 Y109.418 E20.48316
G1 X120.497 Y109.727 E20.49763
G1 X120.528 Y110.041 E20.51233
G1 X120.622 Y110.417 E20.53037
G1 X120.836 Y110.788 E20.55032
G1 X121.045 Y111.022 E20.56493
G1 X121.239 Y111.187 E20.57678
G1 X121.453 Y111.322 E20.58857
G1 X121.741 Y111.451 E20.60326
G1 X122.036 Y111.515 E20.61732
G1 X122.296 Y111.534 E20.62946
G0 F6000 X122.145 Y110.76
;TYPE:SKIN
G1 F1200 X121.817 Y110.65 E20.64556
G1 X121.58 Y110.477 E20.65923
G1 X121.367 Y110.18 E20.67625
G1 X121.283 Y109.915 E20.68919
G1 X121.282 Y109.554 E20.706
G1 X121.373 Y109.28 E20.71944
G1 X121.586 Y108.989 E20.73624
G1 X121.908 Y108.757 E20.75472
G1 X122.351 Y108.698 E20.77553
G1 X122.664 Y108.765 E20.79043
G1 X122.91 Y108.9 E20.8035
G1 X123.204 Y109.19 E20.82273
G1 X123.32 Y109.556 E20.84061
G1 X123.32 Y109.918 E20.85746
G1 X123.23 Y110.186 E20.87063
G1 X123.016 Y110.483 E20.88767
G1 X122.786 Y110.651 E20.90093
G1 X122.443 Y110.76 E20.91769
G1 X122.145 Y110.76 E20.93157
G0 F6000 X122.432 Y110.553
G1 F1200 X121.48 Y109.601 E20.99426
G0 F6000 X121.664 Y109.219
G1 F1200 X122.82 Y110.375 E21.07038
G0 F6000 X123.063 Y110.052
G1 F1200 X121.985 Y108.974 E21.14137
G0 F6000 X122.515 Y108.938
G1 F1200 X123.09 Y109.513 E21.17924
G1 F2700 E16.17924
;MESH:4.stl
G0 F6000 X123.532 Y109.363
G0 X123.885 Y109.743
G0 X124.963 Y109.857
G0 X129.701 Y110.152
G0 X130.785 Y110.153
G0 X131.254 Y110.482
G0 X132.157 Y111.136
G0 X132.356 Y111.397
;TYPE:WALL-INNER
G1 F2700 E21.17924
G1 F1200 X132.598 Y111.373 E21.19056
G1 X132.968 Y111.255 E21.20864
G1 X133.178 Y111.134 E21.21993
G1 X133.524 Y110.779 E21.24301
G1 X133.634 Y110.574 E21.25385
G1 X133.744 Y110.203 E21.27186
G1 X133.748 Y109.697 E21.29543
G1 X133.594 Y109.338 E21.31362
G1 X133.365 Y109.023 E21.33175
G1 X133.192 Y108.865 E21.34266
G1 X132.796 Y108.666 E21.3633
G1 X132.366 Y108.593 E21.38361
G1 X132.125 Y108.617 E21.39488
G1 X131.755 Y108.735 E21.41297
G1 X131.431 Y108.952 E21.43112
G1 X131.148 Y109.293 E21.45176
G1 X131.031 Y109.554 E21.46508
G1 X130.968 Y109.842 E21.47881
G1 X130.967 Y110.132 E21.49231
