;FLAVOR:Marlin
;TIME:349
;Filament used: 0.194051m
;Layer height: 0.28
;MINX:94.908
;MINY:93.301
;MINZ:0.28
;MAXX:144.248
;MAXY:130.94
;MAXZ:5.32
;TARGET_MACHINE.NAME:Creality Ender-3
;Generated with Cura_SteamEngine 5.6.0
M140 S50
M105
M190 S50
M104 S200
M105
M109 S200
M82 ;absolute extrusion mode
; Ender 3 Custom Start G-code
G92 E0 ; Reset Extruder
G28 ; Home all axes
G1 Z2.0 F3000 ; Move Z Axis up little to prevent scratching of Heat Bed
G1 X0.1 Y20 Z0.3 F5000.0 ; Move to start position
G1 X0.1 Y200.0 Z0.3 F1500.0 E15 ; Draw the first line
G1 X0.4 Y200.0 Z0.3 F5000.0 ; Move to side a little
G1 X0.4 Y20 Z0.3 F1500.0 E30 ; Draw the second line
G92 E0 ; Reset Extruder
G1 Z2.0 F3000 ; Move Z Axis up little to prevent scratching of Heat Bed
G1 X5 Y20 Z0.3 F5000.0 ; Move over to prevent blob squish
G92 E0
G92 E0
G1 F2700 E-5
;LAYER_COUNT:19
;LAYER:0
M107
G0 F6000 X100.864 Y98.037 Z0.28
;TYPE:SKIRT
G1 F2700 E0
G1 F1200 X101.132 Y97.79 E0.01697
G1 X101.821 Y97.206 E0.05903
G1 X102.534 Y96.69 E0.10001
G1 X103.349 Y96.172 E0.14498
G1 X104.148 Y95.746 E0.18714
G1 X105.067 Y95.325 E0.23421
G1 X106.302 Y94.908 E0.2949
G1 X106.663 Y94.81 E0.31232
G1 X107.746 Y94.573 E0.36395
G1 X109.029 Y94.423 E0.42409
G1 X109.95 Y94.364 E0.46707
G1 X112.551 Y94.162 E0.58855
G1 X115.098 Y93.895 E0.70779
G1 X118.597 Y93.414 E0.87225
G1 X119.901 Y93.308 E0.93317
G1 X120.285 Y93.301 E0.95106
G1 X121.131 Y93.322 E0.99046
G1 X122.181 Y93.387 E1.03945
G1 X124.786 Y93.51 E1.16088
G1 X127.279 Y93.556 E1.27699
G1 X129.895 Y93.53 E1.39881
G1 X130.984 Y93.508 E1.44953
G1 X131.952 Y93.533 E1.49461
G1 X132.696 Y93.612 E1.52945
G1 X133.09 Y93.668 E1.54798
G1 X134.034 Y93.844 E1.5927
G1 X134.65 Y94.006 E1.62236
G1 X135.022 Y94.117 E1.64043
G1 X135.936 Y94.432 E1.68545
G1 X136.605 Y94.725 E1.71946
G1 X136.973 Y94.901 E1.73845
G1 X137.832 Y95.361 E1.78383
G1 X138.611 Y95.87 E1.82716
G1 X139.055 Y96.204 E1.85303
G1 X139.486 Y96.548 E1.8787
G1 X140.219 Y97.19 E1.92408
G1 X140.887 Y97.886 E1.969
G1 X141.469 Y98.597 E2.01178
G1 X142.234 Y99.694 E2.07406
G1 X142.451 Y100.053 E2.09359
G1 X142.911 Y100.9 E2.13847
G1 X143.24 Y101.636 E2.17601
G1 X143.581 Y102.54 E2.221
G1 X143.818 Y103.354 E2.26048
G1 X144.021 Y104.234 E2.30253
G1 X144.148 Y105.07 E2.3419
G1 X144.236 Y106.031 E2.38684
G1 X144.248 Y106.873 E2.42605
G1 X144.199 Y107.87 E2.47253
G1 X144.1 Y108.883 E2.51992
G1 X143.871 Y111.565 E2.64526
G1 X143.732 Y114.037 E2.76055
G1 X143.652 Y117.225 E2.90905
G1 X143.647 Y117.924 E2.94159
G1 X143.606 Y118.755 E2.98034
G1 X143.563 Y119.212 E3.00171
G1 X143.427 Y120.192 E3.04778
G1 X143.107 Y121.483 E3.10971
G1 X142.968 Y121.924 E3.13124
G1 X142.631 Y122.837 E3.17656
G1 X142.219 Y123.712 E3.2216
G1 X142.012 Y124.102 E3.24216
G1 X141.538 Y124.908 E3.2857
G1 X141.101 Y125.536 E3.32132
G1 X140.86 Y125.856 E3.33997
G1 X140.261 Y126.583 E3.38384
G1 X139.435 Y127.409 E3.43823
G1 X139.077 Y127.729 E3.46059
G1 X138.316 Y128.348 E3.50627
G1 X137.379 Y128.971 E3.55866
G1 X136.993 Y129.199 E3.57954
G1 X136.168 Y129.638 E3.62305
G1 X135.281 Y130.02 E3.66802
G1 X133.997 Y130.451 E3.73109
G1 X133.675 Y130.536 E3.7466
G1 X132.793 Y130.73 E3.78865
G1 X132.176 Y130.821 E3.81769
G1 X131.744 Y130.872 E3.83794
G1 X130.769 Y130.94 E3.88345
G1 X129.637 Y130.913 E3.93618
G1 X128.586 Y130.831 E3.98527
G1 X127.494 Y130.729 E4.03634
G1 X124.995 Y130.567 E4.15294
G1 X122.479 Y130.475 E4.27018
G1 X121.603 Y130.472 E4.31097
G1 X121.323 Y130.459 E4.32402
G1 X119.699 Y130.435 E4.39965
G1 X117.123 Y130.435 E4.5196
G1 X114.597 Y130.506 E4.63727
G1 X112.064 Y130.65 E4.7554
G1 X109.013 Y130.904 E4.89796
G1 X107.895 Y130.938 E4.95005
G1 X107.584 Y130.93 E4.96453
G1 X106.623 Y130.864 E5.00939
G1 X105.939 Y130.766 E5.04156
G1 X105.587 Y130.702 E5.05822
G1 X104.504 Y130.455 E5.10994
G1 X103.515 Y130.135 E5.15835
G1 X102.733 Y129.81 E5.19778
G1 X102.359 Y129.636 E5.21699
G1 X101.495 Y129.187 E5.26233
G1 X100.715 Y128.691 E5.30537
G1 X100.345 Y128.43 E5.32645
G1 X99.581 Y127.839 E5.37143
G1 X98.951 Y127.268 E5.41102
G1 X98.299 Y126.601 E5.45445
G1 X97.758 Y125.957 E5.49362
G1 X97.201 Y125.211 E5.53697
G1 X96.873 Y124.702 E5.56516
G1 X96.662 Y124.35 E5.58427
G1 X96.2 Y123.499 E5.62936
G1 X95.874 Y122.763 E5.66685
G1 X95.766 Y122.49 E5.68052
G1 X95.469 Y121.637 E5.72257
G1 X95.263 Y120.848 E5.76054
G1 X95.167 Y120.42 E5.78097
G1 X95.01 Y119.531 E5.82301
G1 X94.927 Y118.645 E5.86444
G1 X94.911 Y118.344 E5.87848
G1 X94.908 Y117.254 E5.92923
G1 X94.924 Y116.929 E5.94438
G1 X95.021 Y115.928 E5.99121
G1 X95.17 Y115.102 E6.0303
G1 X95.391 Y114.118 E6.07726
G1 X95.931 Y111.589 E6.19767
G1 X96.385 Y109.136 E6.31383
G1 X96.809 Y106.399 E6.4428
G1 X96.916 Y105.632 E6.47886
G1 X97.141 Y104.489 E6.53311
G1 X97.224 Y104.167 E6.54859
G1 X97.505 Y103.24 E6.59369
G1 X97.836 Y102.396 E6.63591
G1 X98.246 Y101.518 E6.68103
G1 X98.664 Y100.784 E6.72036
G1 X99.179 Y100.002 E6.76396
G1 X99.436 Y99.647 E6.78437
G1 X100.022 Y98.909 E6.82825
G1 X100.864 Y98.037 E6.88469
G0 F6000 X101.135 Y98.331
G1 F1200 X101.391 Y98.095 E6.90091
G1 X102.08 Y97.511 E6.94296
G1 X102.749 Y97.027 E6.98141
G1 X103.537 Y96.525 E7.02492
G1 X104.336 Y96.099 E7.06708
G1 X105.195 Y95.704 E7.1111
G1 X106.407 Y95.294 E7.17068
G1 X106.749 Y95.201 E7.18719
G1 X107.832 Y94.964 E7.23881
G1 X109.054 Y94.822 E7.29609
G1 X109.981 Y94.763 E7.33934
G1 X112.588 Y94.561 E7.4611
G1 X115.14 Y94.293 E7.58059
G1 X117.795 Y93.934 E7.70534
G1 X118.629 Y93.813 E7.74458
G1 X119.933 Y93.707 E7.8055
G1 X120.275 Y93.701 E7.82143
G1 X121.106 Y93.721 E7.86013
G1 X122.162 Y93.787 E7.9094
G1 X124.767 Y93.91 E8.03084
G1 X127.276 Y93.956 E8.14769
G1 X129.903 Y93.93 E8.27002
G1 X130.974 Y93.908 E8.3199
G1 X131.91 Y93.931 E8.36349
G1 X132.64 Y94.008 E8.39767
G1 X133.017 Y94.061 E8.4154
G1 X133.933 Y94.231 E8.45878
G1 X134.536 Y94.389 E8.48781
G1 X134.892 Y94.495 E8.5051
G1 X135.776 Y94.799 E8.54863
G1 X136.433 Y95.086 E8.58202
G1 X136.785 Y95.254 E8.60018
G1 X137.613 Y95.696 E8.64388
G1 X138.392 Y96.205 E8.68721
G1 X138.806 Y96.517 E8.71135
G1 X139.223 Y96.849 E8.73617
G1 X139.931 Y97.467 E8.77993
G1 X140.578 Y98.14 E8.8234
G1 X141.141 Y98.826 E8.86473
G1 X141.906 Y99.923 E8.927
G1 X142.1 Y100.244 E8.94447
G1 X142.546 Y101.064 E8.98793
G1 X142.866 Y101.778 E9.02436
G1 X143.197 Y102.652 E9.06788
G1 X143.428 Y103.444 E9.1063
G1 X143.631 Y104.324 E9.14835
G1 X143.75 Y105.107 E9.18523
G1 X143.836 Y106.037 E9.22872
G1 X143.848 Y106.853 E9.26672
G1 X143.799 Y107.85 E9.3132
G1 X143.701 Y108.849 E9.35994
G1 X143.473 Y111.531 E9.48528
G1 X143.332 Y114.027 E9.60169
G1 X143.252 Y117.215 E9.75018
G1 X143.247 Y117.904 E9.78226
G1 X143.206 Y118.735 E9.821
G1 X143.167 Y119.158 E9.84078
G1 X143.039 Y120.096 E9.88487
G1 X142.719 Y121.387 E9.9468
G1 X142.593 Y121.786 E9.96628
G1 X142.269 Y122.667 E10.00999
G1 X141.866 Y123.524 E10.05409
G1 X141.667 Y123.899 E10.07386
G1 X141.193 Y124.705 E10.1174
G1 X140.781 Y125.296 E10.15094
G1 X140.551 Y125.602 E10.16877
G1 X139.978 Y126.3 E10.21082
G1 X139.152 Y127.126 E10.26521
G1 X138.824 Y127.419 E10.28569
G1 X138.094 Y128.015 E10.32957
G1 X137.175 Y128.627 E10.38099
G1 X136.805 Y128.846 E10.40101
G1 X135.98 Y129.285 E10.44452
G1 X135.154 Y129.641 E10.48641
G1 X133.895 Y130.064 E10.54825
G1 X133.589 Y130.145 E10.56299
G1 X132.707 Y130.339 E10.60504
G1 X132.129 Y130.424 E10.63225
G1 X131.716 Y130.473 E10.65161
G1 X130.778 Y130.54 E10.6954
G1 X129.668 Y130.514 E10.7471
G1 X128.623 Y130.433 E10.79591
G1 X127.52 Y130.33 E10.84749
G1 X125.01 Y130.167 E10.96461
G1 X122.494 Y130.075 E11.08185
G1 X121.622 Y130.072 E11.12245
G1 X121.342 Y130.059 E11.1355
G1 X119.705 Y130.035 E11.21174
G1 X117.112 Y130.035 E11.33248
G1 X114.586 Y130.106 E11.45014
G1 X112.031 Y130.251 E11.56931
G1 X109.001 Y130.504 E11.71089
G1 X107.905 Y130.538 E11.76195
G1 X107.611 Y130.531 E11.77564
G1 X106.68 Y130.468 E11.81909
G1 X106.01 Y130.372 E11.85061
G1 X105.676 Y130.312 E11.86641
G1 X104.627 Y130.074 E11.9165
G1 X103.668 Y129.765 E11.96341
G1 X102.901 Y129.447 E12.00207
G1 X102.543 Y129.281 E12.02045
G1 X101.71 Y128.849 E12.06414
G1 X100.93 Y128.353 E12.10718
G1 X100.589 Y128.113 E12.1266
G1 X99.849 Y127.542 E12.17012
G1 X99.237 Y126.988 E12.20856
G1 X98.585 Y126.321 E12.252
G1 X98.078 Y125.717 E12.28871
G1 X97.537 Y124.994 E12.33076
G1 X97.216 Y124.496 E12.35835
G1 X97.013 Y124.159 E12.37667
G1 X96.566 Y123.337 E12.42024
G1 X96.246 Y122.615 E12.45701
G1 X96.144 Y122.358 E12.46989
G1 X95.847 Y121.505 E12.51195
G1 X95.653 Y120.761 E12.54775
G1 X95.561 Y120.35 E12.56736
G1 X95.404 Y119.461 E12.6094
G1 X95.326 Y118.624 E12.64854
G1 X95.311 Y118.343 E12.66164
G1 X95.308 Y117.274 E12.71142
G1 X95.324 Y116.949 E12.72657
G1 X95.415 Y115.999 E12.77101
G1 X95.564 Y115.173 E12.81009
G1 X95.781 Y114.205 E12.85629
G1 X96.322 Y111.673 E12.97685
G1 X96.778 Y109.209 E13.09353
G1 X97.204 Y106.46 E13.22306
G1 X97.309 Y105.709 E13.25837
G1 X97.529 Y104.588 E13.31157
G1 X97.607 Y104.282 E13.32627
G1 X97.877 Y103.386 E13.36984
G1 X98.199 Y102.565 E13.41091
G1 X98.594 Y101.716 E13.45451
G1 X99.012 Y100.982 E13.49384
G1 X99.504 Y100.236 E13.53545
G1 X99.749 Y99.896 E13.55497
G1 X100.335 Y99.158 E13.59885
G1 X101.135 Y98.331 E13.65243
G0 F6000 X101.407 Y98.625
G1 F1200 X101.65 Y98.4 E13.66785
G1 X102.339 Y97.816 E13.7099
G1 X102.964 Y97.364 E13.74582
G1 X103.725 Y96.878 E13.78786
G1 X104.504 Y96.462 E13.82899
G1 X105.323 Y96.083 E13.87101
G1 X106.535 Y95.673 E13.93059
G1 X106.835 Y95.592 E13.94505
G1 X107.918 Y95.355 E13.99668
G1 X109.079 Y95.221 E14.0511
G1 X110.012 Y95.162 E14.09463
G1 X112.625 Y94.96 E14.21666
G1 X115.182 Y94.69 E14.33639
G1 X117.853 Y94.33 E14.46189
G1 X118.661 Y94.212 E14.49991
G1 X119.965 Y94.106 E14.56083
G1 X120.266 Y94.101 E14.57485
G1 X121.081 Y94.12 E14.61281
G1 X122.143 Y94.187 E14.66236
G1 X124.748 Y94.31 E14.78379
G1 X127.273 Y94.356 E14.90139
G1 X129.911 Y94.33 E15.02423
G1 X130.965 Y94.308 E15.07332
G1 X131.868 Y94.329 E15.11538
G1 X132.585 Y94.404 E15.14895
G1 X132.944 Y94.454 E15.16582
G1 X133.832 Y94.618 E15.20787
G1 X134.423 Y94.773 E15.23632
G1 X134.762 Y94.873 E15.25278
G1 X135.616 Y95.166 E15.29482
G1 X136.261 Y95.447 E15.32758
G1 X136.597 Y95.607 E15.34491
G1 X137.395 Y96.031 E15.38699
G1 X138.151 Y96.524 E15.42901
G1 X138.557 Y96.83 E15.45269
G1 X138.961 Y97.151 E15.47671
G1 X139.643 Y97.744 E15.5188
G1 X140.269 Y98.394 E15.56082
G1 X140.813 Y99.055 E15.60068
G1 X141.578 Y100.152 E15.66296
G1 X141.749 Y100.435 E15.67835
G1 X142.181 Y101.228 E15.7204
G1 X142.492 Y101.92 E15.75573
G1 X142.813 Y102.764 E15.79777
G1 X143.038 Y103.534 E15.83513
G1 X143.241 Y104.414 E15.87718
G1 X143.352 Y105.144 E15.91156
G1 X143.436 Y106.043 E15.95361
G1 X143.448 Y106.833 E15.9904
G1 X143.399 Y107.83 E16.03688
G1 X143.302 Y108.815 E16.08297
G1 X143.075 Y111.497 E16.2083
G1 X142.932 Y114.017 E16.32583
G1 X142.852 Y117.205 E16.47432
G1 X142.847 Y117.884 E16.50594
G1 X142.806 Y118.715 E16.54468
G1 X142.771 Y119.105 E16.56291
G1 X142.651 Y120 E16.60496
G1 X142.338 Y121.266 E16.66569
G1 X142.217 Y121.649 E16.68439
G1 X141.907 Y122.497 E16.72643
G1 X141.512 Y123.337 E16.76965
G1 X141.322 Y123.697 E16.78861
G1 X140.865 Y124.476 E16.83066
G1 X140.461 Y125.056 E16.86358
G1 X140.242 Y125.348 E16.88057
G1 X139.669 Y126.046 E16.92262
G1 X138.885 Y126.828 E16.97419
G1 X138.57 Y127.11 E16.99387
G1 X137.872 Y127.682 E17.03589
G1 X136.971 Y128.283 E17.08632
G1 X136.617 Y128.493 E17.10549
G1 X135.821 Y128.918 E17.14751
G1 X135.027 Y129.262 E17.1878
G1 X133.792 Y129.677 E17.24847
G1 X133.503 Y129.754 E17.26239
G1 X132.621 Y129.948 E17.30445
G1 X132.082 Y130.027 E17.32981
G1 X131.687 Y130.074 E17.34833
G1 X130.787 Y130.14 E17.39035
G1 X129.699 Y130.115 E17.44103
G1 X128.66 Y130.035 E17.48955
G1 X127.546 Y129.931 E17.54165
G1 X125.025 Y129.767 E17.65929
G1 X122.509 Y129.675 E17.77652
G1 X121.641 Y129.672 E17.81694
G1 X121.361 Y129.659 E17.82999
G1 X119.711 Y129.635 E17.90683
G1 X117.101 Y129.635 E18.02836
G1 X114.575 Y129.706 E18.14603
G1 X111.998 Y129.852 E18.26622
G1 X108.988 Y130.104 E18.40687
G1 X107.914 Y130.138 E18.4569
G1 X107.638 Y130.132 E18.46976
G1 X106.737 Y130.072 E18.5118
G1 X106.08 Y129.978 E18.54271
G1 X105.764 Y129.922 E18.55765
G1 X104.75 Y129.693 E18.60606
G1 X103.791 Y129.384 E18.65297
G1 X103.069 Y129.084 E18.68938
G1 X102.727 Y128.926 E18.70692
G1 X101.925 Y128.511 E18.74897
G1 X101.145 Y128.015 E18.79201
G1 X100.833 Y127.796 E18.80976
G1 X100.117 Y127.245 E18.85183
G1 X99.523 Y126.708 E18.88912
G1 X98.891 Y126.063 E18.93117
G1 X98.398 Y125.477 E18.96682
G1 X97.857 Y124.754 E19.00887
G1 X97.558 Y124.289 E19.03461
G1 X97.364 Y123.968 E19.05208
G1 X96.932 Y123.175 E19.09413
G1 X96.618 Y122.467 E19.13019
G1 X96.522 Y122.226 E19.14227
G1 X96.225 Y121.373 E19.18433
G1 X96.043 Y120.674 E19.21796
G1 X95.955 Y120.28 E19.23676
G1 X95.798 Y119.391 E19.2788
G1 X95.725 Y118.603 E19.31565
G1 X95.711 Y118.342 E19.32782
G1 X95.708 Y117.294 E19.37662
G1 X95.724 Y116.969 E19.39177
G1 X95.809 Y116.07 E19.43382
G1 X95.958 Y115.244 E19.4729
G1 X96.171 Y114.292 E19.51832
G1 X96.713 Y111.757 E19.63903
G1 X97.171 Y109.282 E19.75624
G1 X97.599 Y106.521 E19.88634
G1 X97.705 Y105.765 E19.92188
G1 X97.917 Y104.686 E19.97309
G1 X97.99 Y104.397 E19.98696
G1 X98.249 Y103.532 E20.02901
G1 X98.562 Y102.733 E20.06897
G1 X98.942 Y101.914 E20.11101
G1 X99.36 Y101.18 E20.15034
G1 X99.828 Y100.47 E20.18994
G1 X100.063 Y100.144 E20.20865
G1 X100.623 Y99.436 E20.25068
G1 X101.407 Y98.625 E20.30321
G1 F2700 E15.30321
;MESH:4_2.stl(4)
G0 F6000 X107.934 Y105.565
G0 X109.963 Y109.177
;TYPE:WALL-INNER
G1 F2700 E20.30321
G1 F1200 X110.392 Y109.119 E20.32337
G1 X110.791 Y108.95 E20.34354
G1 X111.205 Y108.614 E20.36837
G1 X111.41 Y108.273 E20.3869
G1 X111.505 Y108.012 E20.39983
G1 X111.563 Y107.581 E20.42008
G1 X111.506 Y107.157 E20.44
G1 X111.413 Y106.891 E20.45312
G1 X111.278 Y106.665 E20.46538
G1 X110.978 Y106.342 E20.48591
G1 X110.603 Y106.115 E20.50632
G1 X110.198 Y105.999 E20.52594
G1 X109.759 Y105.996 E20.54638
G1 X109.334 Y106.113 E20.5669
G1 X108.961 Y106.338 E20.58719
G1 X108.664 Y106.652 E20.60731
G1 X108.522 Y106.888 E20.62014
G1 X108.43 Y107.14 E20.63263
G1 X108.369 Y107.574 E20.65304
G1 X108.387 Y107.851 E20.66596
G1 X108.46 Y108.114 E20.67867
G1 X108.654 Y108.493 E20.6985
G1 X108.951 Y108.813 E20.71883
G1 X109.139 Y108.947 E20.72958
G1 X109.524 Y109.114 E20.74912
G1 X109.963 Y109.177 E20.76977
G0 F6000 X110.232 Y109.561
;TYPE:WALL-OUTER
G1 F1200 X110.5 Y109.505 E20.78252
G1 X110.759 Y109.415 E20.79529
G1 X110.998 Y109.293 E20.80778
G1 X111.224 Y109.134 E20.82065
G1 X111.424 Y108.948 E20.83336
G1 X111.599 Y108.736 E20.84617
G1 X111.773 Y108.447 E20.86187
G1 X111.891 Y108.122 E20.87797
G1 X111.944 Y107.87 E20.88996
G1 X111.964 Y107.583 E20.90336
G1 X111.948 Y107.315 E20.91586
G1 X111.892 Y107.049 E20.92852
G1 X111.777 Y106.72 E20.94475
G1 X111.606 Y106.435 E20.96022
G1 X111.434 Y106.224 E20.9729
G1 X111.232 Y106.032 E20.98588
G1 X111.01 Y105.876 E20.99851
G1 X110.764 Y105.747 E21.01145
G1 X110.513 Y105.657 E21.02386
G1 X110.254 Y105.602 E21.03619
G1 X109.97 Y105.582 E21.04945
G1 X109.705 Y105.598 E21.06181
G1 X109.428 Y105.657 E21.075
G1 X109.176 Y105.744 E21.08741
G1 X108.935 Y105.867 E21.10001
G1 X108.709 Y106.026 E21.11288
G1 X108.509 Y106.212 E21.12559
G1 X108.337 Y106.42 E21.13816
G1 X108.159 Y106.715 E21.15421
G1 X108.044 Y107.03 E21.16982
G1 X107.989 Y107.294 E21.18238
G1 X107.968 Y107.572 E21.19536
G1 X107.991 Y107.918 E21.21151
G1 X108.082 Y108.248 E21.22745
G1 X108.188 Y108.493 E21.23988
G1 X108.326 Y108.724 E21.25241
G1 X108.503 Y108.94 E21.26541
G1 X108.696 Y109.123 E21.27779
G1 X108.93 Y109.289 E21.29115
G1 X109.164 Y109.411 E21.30344
G1 X109.415 Y109.5 E21.31584
G1 X109.683 Y109.557 E21.3286
G1 X109.961 Y109.578 E21.34158
G1 X110.232 Y109.561 E21.35422
G0 F6000 X110.049 Y108.827
;TYPE:SKIN
G1 F1200 X109.622 Y108.765 E21.37432
G1 X109.245 Y108.602 E21.39344
G1 X108.952 Y108.286 E21.41351
G1 X108.805 Y107.999 E21.42852
G1 X108.732 Y107.568 E21.44888
G1 X108.776 Y107.247 E21.46396
G1 X108.964 Y106.859 E21.48404
G1 X109.191 Y106.619 E21.49942
G1 X109.478 Y106.444 E21.51508
